!!!COM: L van Beethoven
!!!OTL: String Quartet No12 Op127
**kern	**dynam	**kern	**dynam	**kern	**dynam	**kern	**dynam	**mxhm
*part4	*part4	*part3	*part3	*part2	*part2	*part1	*part1	*part1
*staff4	*	*staff3	*	*staff2	*	*staff1	*	*
*I"Violoncello	*	*I"Viola	*	*I"Violin II	*	*I"Violin I	*	*
*I'Vc.	*	*I'Vla.	*	*I'Vln. II	*	*I'Vln. I	*	*
*clefF4	*	*clefC3	*	*clefG2	*	*clefG2	*	*
*k[b-e-a-]	*	*k[b-e-a-]	*	*k[b-e-a-]	*	*k[b-e-a-]	*	*
*E-:	*	*E-:	*	*E-:	*	*E-:	*	*
*M2/4	*	*M2/4	*	*M2/4	*	*M2/4	*	*
=1	=1	=1	=1	=1	=1	=1	=1	=1
!	!	!	!	!	!	!LO:TX:a:B:t=Maestoso	!	!
*MM70	*	*MM70	*	*MM70	*	*MM70	*	*
!	!	!	!	!	!	!LO:TX:a:t=[quarter]=70	!	!
2EE- 2BB-	f	2E- 2B-	f	2G	f	2G 2e-	f	.Eb.I
=2	=2	=2	=2	=2	=2	=2	=2	=2
8EE-' 8BB-	.	8E-' 8B-	.	8G'	.	8G' 8e-	.	.
4FF	sf	4D	sf	4A-	sf	4B-	sf	V43
8FF'	.	8D'	.	8A-'	.	8B-'	.	.
=3	=3	=3	=3	=3	=3	=3	=3	=3
2EE- 2BB-	sf	2E- 2B-	sf	2G 2e-	sf	2G 2g	sf	I
=4	=4	=4	=4	=4	=4	=4	=4	=4
8EE-' 8BB-	.	8E-' 8B-	.	8G' 8e-	.	8G' 8g	.	.
4AA-	sf	4F 4B-	sf	4d 4f	sf	4B- 4f	sf	V2
8AA-'	.	8F' 8B-	.	8d' 8f	.	8B-' 8f	.	.
=5	=5	=5	=5	=5	=5	=5	=5	=5
4.GG	sf	4.E- 4.G	sf	4.B- 4.e-	sf	4.b-	sf	vi
8C'	.	8E-'	.	8c' 8e-	.	8g'	.	.
=6	=6	=6	=6	=6	=6	=6	=6	=6
!	!LO:DY:a	!	!LO:DY:a	!	!LO:DY:a	!	!	!
2AA-	p p > ]]	[2E-	p > ]]	4.c 4.e-	sf >	8.ccL	>	IV\\
.	.	.	.	.	.	32bnLL	.	.
.	.	.	.	.	.	32ccJJJ	.	.
.	.	.	.	.	.	(48bLLL	] p	.
.	.	.	.	.	.	48cc	.	.
.	.	.	.	.	.	48b	.	.
.	.	.	.	.	.	48cc	.	.
.	.	.	.	.	.	48b	.	.
.	.	.	.	.	.	48ccJJJ)	.	.
.	.	.	.	[8c	]	(64bLLLL	.	.
.	.	.	.	.	.	64cc	.	.
.	.	.	.	.	.	64b	.	.
.	.	.	.	.	.	64cc	.	.
.	.	.	.	.	.	64b	.	.
.	.	.	.	.	.	64cc	.	.
.	.	.	.	.	.	64dd	.	.
.	.	.	.	.	.	64ccJJJJ)	.	.
=7||	=7||	=7||	=7||	=7||	=7||	=7||	=7||	=7||
*M3/4	*	*M3/4	*	*M3/4	*	*M3/4	*	*
!	!	!	!	!	!	!LO:TX:a:B:t=Allegro	!	!
!LO:TX:b:i:t=sempre p  e  dolce	!	!LO:TX:b:i:t=sempre p  e  dolce	!	!LO:TX:b:i:t=sempre p  e  dolce	!	!LO:TX:b:i:t=sempre p  e  dolce	!	!
*MM120	*	*MM120	*	*MM120	*	*MM120	*	*
!	!	!	!	!	!	!LO:TX:a:t=[quarter]=120	!	!
(2.AA-	.	(4E-]	.	(2c]	.	(4cc	.	IV
.	.	4C	.	.	.	4ff	.	ii6
.	.	[4F)	.	[4B-	.	4dd	.	V2
=8	=8	=8	=8	=8	=8	=8	=8	=8
2.GG	.	(4F]	.	2B-]	.	4b-X	.	I6
.	.	[2E-	.	.	.	4ee-	.	.
.	.	.	.	[4c	.	4cc)	.	vi64
=9	=9	=9	=9	=9	=9	=9	=9	=9
2.FF	.	2E-]	.	2c]	.	(8b-L	.	ii7
.	.	.	.	.	.	8a-J)	.	.
.	.	.	.	.	.	(8a-L	.	.
.	.	.	.	.	.	8gJ	.	.
.	.	[4D)	.	([4B-)	.	4a-')	.	V43
=10	=10	=10	=10	=10	=10	=10	=10	=10
2.GG)	.	(4D]	.	2B-]	.	2b-	.	I6
.	.	4E-	.	.	.	.	.	.
.	.	4D-X	.	4Bn	.	(4bn	.	@none
=11	=11	=11	=11	=11	=11	=11	=11	=11
(2AA-	.	4C	.	2c	.	4cc	.	IV
.	.	4A-	.	.	.	4ff	.	ii6
([4A-)	.	[4B-)	.	[4f	.	4dd	.	V2
=12	=12	=12	=12	=12	=12	=12	=12	=12
4A-]	.	(2B-]	.	4f]	.	4b-X	.	V2
4G	.	.	.	2e-	.	4ee-	.	I6
4A-	.	4A-)	.	.	.	4cc)	.	IV
=13	=13	=13	=13	=13	=13	=13	=13	=13
4BB-	.	(2.F	.	4d	.	(8b-L	.	V7
.	.	.	.	.	.	8a-J)	.	.
4C)	.	.	.	4e-)	.	(8a-L	.	ii43
.	.	.	.	.	.	8gJ	.	.
(8CL	.	.	.	(8e-L	.	4a-')	.	viio
8DJ	.	.	.	8fJ	.	.	.	.
=14	=14	=14	=14	=14	=14	=14	=14	=14
4E-	.	4G	.	4B-X)	.	4g	.	I\\
4F	.	4A-	.	4r	.	4r	.	V43
4G)	.	8B-L	.	4r	.	4r	.	I6
.	.	8BnJ)	.	.	.	.	.	.
=15	=15	=15	=15	=15	=15	=15	=15	=15
(2.A-	.	(4c	.	4r	.	2.r	.	V2
.	.	4f	.	4r	.	.	.	.
.	.	4d	.	4r	.	.	.	.
=16	=16	=16	=16	=16	=16	=16	=16	=16
2.G	.	4B-X	.	(4b-	p	2.r	.	vi64
.	.	4e-	.	4ee-	.	.	.	.
.	.	4c)	.	4cc)	.	.	.	.
=17	=17	=17	=17	=17	=17	=17	=17	=17
2.F	.	(8B-L	.	(8b-L	.	(4dd	p	V43
.	.	8A-J)	.	8a-J)	.	.	.	.
.	.	(8A-L	.	(8a-L	.	4bb-	.	.
.	.	8GJ	.	8gJ	.	.	.	.
.	.	4A-')	.	4a-')	.	4dd	.	.
=18	=18	=18	=18	=18	=18	=18	=18	=18
2G)	.	(4c	.	(4cc	.	4ee-	.	I6(4)
!	!	!LO:TX:b:i:t=cresc.	!	!LO:TX:b:i:t=cresc.	!	!LO:TX:b:i:t=cresc.	!	!
.	.	4B-	.	4b-	.	4bb-	.	I6
!LO:TX:b:i:t=cresc.	!	!	!	!	!	!	!	!
(4GG	.	[4E-	.	4bn)	.	4bbn)	.	I+6
=19	=19	=19	=19	=19	=19	=19	=19	=19
8AA-L	.	4E-]	.	(4cc	.	(4ccc	.	IV
8GGJ	.	.	.	.	.	.	.	.
8AA-L	.	4C	.	4ff	.	4fff	.	ii6
8C	.	.	.	.	.	.	.	.
8BB-	.	4F)	.	4dd	.	4ddd	.	V2
8AA-J	.	.	.	.	.	.	.	.
=20	=20	=20	=20	=20	=20	=20	=20	=20
8GGL	.	(8B-L	.	4b-X	.	4bb-X	.	I6
8EE-	.	8G	.	.	.	.	.	.
8FF	.	8A-	.	4ee-	.	4eee-	.	.
8GGJ	.	8B-J	.	.	.	.	.	.
8AA-L	.	8E-L	.	4cc)	.	4ccc)	.	IV
8AAnJ	.	8FJ)	.	.	.	.	.	.
=21	=21	=21	=21	=21	=21	=21	=21	=21
4BB-	.	(8GL	.	(8b-L	.	(8bb-L	.	I64
.	.	8FJ)	.	8a-J)	.	8aa-J)	.	.
4C	.	(8FL	.	(8a-L	.	(8aa-L	.	vi
.	.	8E-J	.	8gJ	.	8ggJ	.	.
4D)	.	4F') 4A-	.	4B-') 4f	.	4ff')	.	V65
=22	=22	=22	=22	=22	=22	=22	=22	=22
4E-'	.	8GL	.	8B-L	.	4ee-'	.	I
.	.	8cJ	.	8B-J 8e-	.	.	.	.
4G'	.	8E-L 8G	.	8B-L 8e-	.	4G' 4e-	.	I6
.	.	8E-J 8G	.	8B-J 8e-	.	.	.	.
4B-'	f	8E-L 8G	f	8B-L 8e-	f	[4ee-	f	I64
.	.	8E-J 8G	.	8B-J 8e-	.	.	.	.
=23	=23	=23	=23	=23	=23	=23	=23	=23
4e-	.	8E-L 8G	.	8B-L 8e-	.	2ee-]	.	I
.	.	8E- 8G	.	8B- 8e-	.	.	.	.
4r	.	8E- 8G	.	8B- 8e-	.	.	.	.
.	.	8E- 8G	.	8B- 8e-	.	.	.	.
4r	.	8E- 8G	.	8B- 8e-	.	(8ff'L	.	.
.	.	8E-J 8G	.	8B-J 8e-	.	8gg'J)	.	.
=24	=24	=24	=24	=24	=24	=24	=24	=24
4r	.	8FL 8A-	.	8B-L 8d	.	(2bb-	.	V43
.	.	8F 8A-	.	8B- 8d	.	.	.	.
4r	.	8F 8A-	.	8B- 8d	.	.	.	.
.	.	8F 8A-	.	8B- 8d	.	.	.	.
[4BB-	.	8F 8A-	.	8B- 8d	.	8aa-L	.	V7
.	.	8FJ 8A-	.	8B-J 8d	.	8ggJ)	.	.
=25	=25	=25	=25	=25	=25	=25	=25	=25
2BB-]	.	8FL 8A-	.	8B-L 8d	.	(8ggL	.	.
.	.	8F 8A-	.	8B- 8d	.	8ffJ)	.	.
.	.	8F 8A-	.	8B- 8d	.	(8ee-'L	.	.
.	.	8F 8A-	.	8B-J 8d	.	8dd'J	.	.
(8C'L	.	8F 8A-	.	8B-L 8e-	.	8cc'L	.	V65
8D'J)	.	8FJ 8A-	.	8B-J 8f	.	8b-'J)	.	.
=26	=26	=26	=26	=26	=26	=26	=26	=26
(4.F	.	8DL 8B-	.	8B-L 8d	.	(4a-	.	.
.	.	8DJ 8B-	.	8B-J 8d	.	.	.	.
.	.	8E-L 8B-	.	8B-L 8e-	.	4g)	.	I
8E-)	.	8E- 8G	.	8B- 8e-	.	.	.	.
8BB-L	.	8E- 8G	.	8B- 8e-	.	[4ee-	.	I64
8AA-XJ	.	8E-J 8G	.	8B-J 8e-	.	.	.	.
=27	=27	=27	=27	=27	=27	=27	=27	=27
(8GGL	.	8E-L 8G	.	8B-L 8e-	.	2ee-]	.	V2/IV
8FF)	.	8E- 8G	.	8B- 8e-	.	.	.	.
8EE-'	.	8E- 8G	.	8B- 8e-	.	.	.	.
8D-X'J	.	8E-J 8G	.	8B-J 8e-	.	.	.	.
8C'L	.	8A-L	.	8e-L	.	(8ff'L	.	ii43
8BB-'J	.	8B-J	.	8d-XJ	.	8gg'J)	.	viio6/IV
=28	=28	=28	=28	=28	=28	=28	=28	=28
8AA-L	sf	8CL	sf	8cL	sf	(8bb-L	sf	ii6
8AA-	.	8C	.	8f	.	8aa-)	.	.
8AA-	.	8C	.	8f	.	8gg'	.	.
8AA-J	.	8CJ	.	8fJ	.	8ff'J	.	.
8GG'L	.	8D'L	.	8f'L	.	8bbn'L	.	III7
8AA-'J	.	8C'J	.	8f'J	.	8ccc'J	.	ii6
=29	=29	=29	=29	=29	=29	=29	=29	=29
(8AAnL	sf	(8CL	sf	(8fL 8ee-	sf	(8cccL	sf	V65/V
8BB-J)	.	8B-J)	.	8gJ) 8ee-	.	8bb-X)	.	V(64)
8BB-'L	.	8B-'L	.	8g'L 8ee-	.	8aa-'	.	.
8BB-'	.	8B-'J	.	8g'J 8ee-	.	8gg'J	.	.
8BB-'	.	8A-'L	.	8f'L 8dd	.	8ff'L	.	V7
8BB-'J	.	8A-'J	.	8f'J 8dd	.	8bb-'J	.	.
=30	=30	=30	=30	=30	=30	=30	=30	=30
(8BBnL	sf	(8FL	sf	(8ddL	sf	(8aa-L	sf	#viio7/vi
8CJ)	.	8E-J)	.	8ee-J)	.	8gg)	.	vi
8C'L	.	8Bn'L	.	8a-'L	.	8ff'	.	.
8C'J	.	8c'J	.	8g'J	.	8ee-'J	.	.
8DDnL	.	8G'L	.	8g'L	.	8bbn'L	.	V64/vi
8DDJ	.	8A-'J	.	8a-'J	.	8ccc'J	.	vii%7
=31	=31	=31	=31	=31	=31	=31	=31	=31
(8DDL	sf	(8A-L	sf	(8fL	sf	(8cccL	sf	.
8EE-J)	.	8GJ)	.	8gJ)	.	8bb-X)	.	I
8AA-'L	.	8F'L	.	8c'L	.	8aa-'	.	ii6
8AAn'J	.	8E-'	.	8cc'J	.	8gg'J	.	#iv%7
8BB-X'L	.	8D'	.	8f'L	.	8ff'L	.	V
8B-'J	.	8F'J	.	8A-J 8d	.	8bb-'J	.	.
=32	=32	=32	=32	=32	=32	=32	=32	=32
4EE-	.	4E-	.	4G 4e-	.	4e-	.	I\\
4r	.	4r	.	4r	.	4r	.	.
8B-'L	p	4r	.	4r	.	4r	.	.
8c'J	.	.	.	.	.	.	.	.
=33	=33	=33	=33	=33	=33	=33	=33	=33
(8cL	.	2.r	.	2.r	.	2.r	.	V64
8B-X)	.	.	.	.	.	.	.	.
8A-'	.	.	.	.	.	.	.	.
8G'	.	.	.	.	.	.	.	.
8F'	.	.	.	.	.	.	.	.
8B-'J	.	.	.	.	.	.	.	.
=34	=34	=34	=34	=34	=34	=34	=34	=34
4E-'	.	2.r	.	2.r	.	2.r	.	I
4A-'	.	.	.	.	.	.	.	.
4Dn'	.	.	.	.	.	.	.	.
=35	=35	=35	=35	=35	=35	=35	=35	=35
4G'	.	(4C	p	2.r	.	(2e-	p	vi
4C'	.	4G	.	.	.	.	.	.
4F'	.	(4A-)	.	.	.	8dL	.	ii
.	.	.	.	.	.	8cJ)	.	.
=36	=36	=36	=36	=36	=36	=36	=36	=36
4BBn'	.	4A-')	.	4d'	.	4f'	.	V65/vi
4C'	.	4G'	.	4c'	.	4e-'	.	vi.i\\
4r	.	8d'L	.	4r	.	8dd'L	.	.
.	.	8e-'J	.	.	.	8ee-'J	.	.
=37	=37	=37	=37	=37	=37	=37	=37	=37
2.r	.	(8e-L	.	2.r	.	(8ee-L	.	v6
.	.	8d)	.	.	.	8dd)	.	.
.	.	8c'	.	.	.	8cc'	.	.
.	.	8B-'J	.	.	.	8b-'J	.	.
.	.	8An'L	.	.	.	8an'L	.	II64
.	.	8d'J	.	.	.	8dd'J	.	.
=38	=38	=38	=38	=38	=38	=38	=38	=38
2.r	.	4G'	.	(8ee-L	.	4g'	.	v
.	.	.	.	8ddJ)	.	.	.	.
.	.	4c'	.	8cc'L	.	4cc'	.	iv
.	.	.	.	8b-'J	.	.	.	.
.	.	4F#X'	.	8an'L	.	4f#X'	.	II6
.	.	.	.	8dd'J	.	.	.	.
=39	=39	=39	=39	=39	=39	=39	=39	=39
(2D	.	4B-'	.	4g'	.	4b-'	.	iii.V(64)
.	.	4D'	.	4b-'	.	4d'	.	.
8CL	.	8F#XL	.	4d'	.	(8anL	.	V2
8BB-XJ)	.	8GJ	.	.	.	8gJ)	.	i6
=40	=40	=40	=40	=40	=40	=40	=40	=40
!LO:TX:b:i:t=cresc.	!	!	!	!	!	!	!	!
8AAnL	.	8An	.	8c 8d	.	8f#X	.	V43
!	!	!LO:TX:a:i:t=cresc.	!	!	!	!LO:TX:b:i:t=cresc.	!	!
8AnJ	.	4d	.	4cc	.	4ff#X	.	.
8GL	.	.	.	.	.	.	.	.
8GG	.	4D	.	4b-	.	4gg	.	i[i64
8G	.	.	.	.	.	.	.	.
8GGJ	.	8D 8c	.	8f#X	.	8aan	.	V7
=41||	=41||	=41||	=41||	=41||	=41||	=41||	=41||	=41||
*k[b-e-]	*	*k[b-e-]	*	*k[b-e-]	*	*k[b-e-]	*	*
*g:	*	*g:	*	*g:	*	*g:	*	*
[2.GG	p <	4D 4B-	p <	(2G 2g	p <	2.bb-	p <	i64
.	.	4D	.	.	.	.	.	.
.	.	8CL	.	8AL	.	.	.	.
.	.	8DJ	.	8B-J	.	.	.	.
=42	=42	=42	=42	=42	=42	=42	=42	=42
2.GG]	.	4E-	.	4c	.	(2aa	.	iio6
.	.	4C	.	4A	.	.	.	.
.	.	8DL	.	8B-L	.	8ggL	.	i64
.	.	8E-J	.	8cJ	.	8ff#XJ	.	#viio2
=43	=43	=43	=43	=43	=43	=43	=43	=43
[2.GG [2.F#X	[[	(2C	.	(4A)	.	4aa	.	#viio43
.	.	.	.	4cc	[ >	4ee-	[ >	.
.	.	8DL	[ >	8b-L	.	8ddL	.	.
.	.	[8E-J)	.	8aJ)	.	8ccJ)	.	.
=44	=44	=44	=44	=44	=44	=44	=44	=44
*^	*	*	*	*	*	*	*	*
(4F#]	2GG]	>	(4E-]	.	(4a	.	(4cc	.	#viio2
4G)	.	.	4D	.	[2g)	]]	4b-	.	i64]
*v	*v	*	*	*	*	*	*	*	*
(4AA	.	8CL	.	.	.	4cc	]]	ii%7
.	.	[8GJ	]]	.	.	.	.	.
=45	=45	=45	=45	=45	=45	=45	=45	=45
!LO:TX:b:i:t=dim.	!	!LO:TX:b:i:t=dim.	!	!LO:TX:b:i:t=dim.	!	!LO:TX:b:i:t=dim.	!	!
2.BBn	]	2.G_)	.	4g]	.	4dd	.	V65/IV
.	.	.	.	[2d	.	4gg	.	.
.	.	.	.	.	.	[4ffn	.	.
=46	=46	=46	=46	=46	=46	=46	=46	=46
2C	.	2G]	.	4d]	.	(4ff])	.	IV(94)
.	.	.	.	(8cL	.	4dd#X	.	IV(#2)
.	.	.	.	8B-J	.	.	.	.
[4C#X)	.	[4g	.	[4A)	.	[4een)	.	V65/V
=47	=47	=47	=47	=47	=47	=47	=47	=47
!LO:TX:b:i:t=cresc.	!	!	!	!	!	!	!	!
(4.C#]	.	4g]	.	(4A]	.	(8eeL]	.	.
!	!	!	!	!	!	!LO:TX:b:i:t=cresc.	!	!
.	.	.	.	.	.	8aJ	.	.
!	!	!LO:TX:b:i:t=cresc.	!	!LO:TX:b:i:t=cresc.	!	!	!	!
.	.	(8EnL	.	8enL	.	4aa)	.	V
8D	.	8F#XJ	.	8d	.	.	.	.
4En)	.	4G)	.	8c#X	.	4aa	.	V43/V
.	.	.	.	8cc#XJ)	.	.	.	.
=48	=48	=48	=48	=48	=48	=48	=48	=48
8F#X	p	8A	p	8ccn	p	(8aaL	p	V65
4d	.	4D 4A	.	4f#X	.	8ddJ	.	.
.	.	.	.	.	.	8ee-XL	.	i64
4d	.	4D 4B-	.	4g	.	8ddJ	.	.
.	.	.	.	.	.	8dddL	.	V7
8d	.	8D 8c	.	8a	.	8ff#XJ	.	.
=49	=49	=49	=49	=49	=49	=49	=49	=49
*	*	*^	*	*	*	*	*	*
(2.d	<	4G	[2.G	<	(2.b-	<	8ggL)	<	i[i64
.	.	.	.	.	.	.	(8ggJ	.	.
.	.	2g	.	.	.	.	8ff#XL	.	.
.	.	.	.	.	.	.	8gg	.	.
.	.	.	.	.	.	.	8aa	.	.
.	.	.	.	.	.	.	8bb-J)	.	.
=50	=50	=50	=50	=50	=50	=50	=50	=50	=50
2c	.	4.f#X	2G_	.	2a	.	(8ee-L	.	V2
.	.	.	.	.	.	.	8ccc	.	.
.	.	.	.	.	.	.	8bbn	.	.
.	.	8e-	.	.	.	.	8cccJ	.	.
8B-L	.	8dL	8G]	.	8gL	.	8dddL	.	i6
8AJ)	[[	8cJ	8r	.	8f#XJ)	[[	8eee-J)	[[	#viio65
=51	=51	=51	=51	=51	=51	=51	=51	=51	=51
(8cL	>	(2f#X	[2.G	[ >	(4a	>	(8eee-L	>	#viio43
8e-J	.	.	.	.	.	.	8ff#XJ	.	.
8dL	.	.	.	.	4e-	.	8ggL	.	.
8cJ	.	.	.	.	.	.	8aa	.	.
8B-L	.	8gL	.	.	8dL	.	8bb-X	.	i6
8AJ)	]]	8aJ)	.	.	8cJ)	]]	8cccJ)	]]	.
=52	=52	=52	=52	=52	=52	=52	=52	=52	=52
(4A	.	(4f#X	2.G_	]	(4c	.	(8ccc#XL	.	V43
.	.	.	.	.	.	.	8ddd	.	.
4G)	.	[2g)	.	.	4B-)	.	8eee-	.	VI6
.	.	.	.	.	.	.	8ddd	.	.
(8GL	.	.	.	.	(8B-L	.	8eeen	.	#vi6
8AJ)	.	.	.	.	8cJ)	.	8fff#XJ)	.	#viio6
=53	=53	=53	=53	=53	=53	=53	=53	=53	=53
!LO:TX:b:i:t=dim.	!	!LO:TX:b:i:t=dim.	!	!	!LO:TX:b:i:t=dim.	!	!LO:TX:b:i:t=dim.	!	!
(2B-	.	(2g]	2.G_	.	(8dL	.	(8gggL	.	i6
.	.	.	.	.	8ddJ	.	8dddJ)	.	.
.	.	.	.	.	4gg	.	(8dddL	.	.
.	.	.	.	.	.	.	8gggJ)	.	.
4Bn	.	4d)	.	.	(4ffn	.	(8gggL	.	V6/iv
.	.	.	.	.	.	.	8ggJ)	.	.
=54	=54	=54	=54	=54	=54	=54	=54	=54	=54
2c	.	4f	2.G_	.	4ff)	.	(8ggL	.	IV64(7)
.	.	.	.	.	.	.	8gggJ)	.	.
.	.	4d#X	.	.	4dd#X	.	(8gggL	.	IV64(#5)
.	.	.	.	.	.	.	8aaJ)	.	.
[4c#X)	.	4G	.	.	[4een)	.	(8aaL	.	V6/V
.	.	.	.	.	.	.	8aaaJ)	.	.
=55	=55	=55	=55	=55	=55	=55	=55	=55	=55
!LO:TX:b:i:t=cresc.	!	!LO:TX:a:i:t=cresc.	!	!	!	!	!	!	!
(4c#]	.	(8gL	2.G]	.	8eeL]	.	(8aaaL	.	.
!	!	!	!	!	!	!	!LO:TX:b:i:t=cresc.	!	!
.	.	8enJ	.	.	(8AJ	.	8aaJ)	.	.
!	!	!	!	!	!LO:TX:b:i:t=cresc.	!	!	!	!
4d	.	4d	.	.	4a)	.	8aaL	.	V]
.	.	.	.	.	.	.	8aaJ	.	.
8enL	.	8c#XL	.	.	4a	.	(8ggL	.	V43/V
8EnJ)	.	8GJ)	.	.	.	.	8aaJ)	.	.
*	*	*v	*v	*	*	*	*	*	*
=56	=56	=56	=56	=56	=56	=56	=56	=56
8F#X'L	.	8cn'L 8e-X	.	8A'L	.	8aa'L	.	V65
8G'J	.	8B-'J 8d	.	8b-'J	.	8bb-'J	.	i
8G'L	.	8B-' 8d	.	8d'L 8b-	.	8bb-'L	.	.
8C'J	.	8ee-'L	.	8aa'	.	8ccc'J	.	iv
8D'L	.	8dd'	.	8gg'	.	8bb-'L	.	V(64)
8c'J	.	8dd'J	.	8ff#X'J	.	8aa'J	.	V2
=57	=57	=57	=57	=57	=57	=57	=57	=57
(4B-	<	[2.g	p <	4dd	p <	4ddd	p <	i6
4e-	.	.	.	4r	.	4r	.	.
4d	.	.	.	(8ee-L	.	(8eee-L	.	i64
.	.	.	.	8ddJ)	.	8dddJ)	.	.
=58	=58	=58	=58	=58	=58	=58	=58	=58
4A	.	(4g]	.	4dd	.	4ddd	.	V43(4)
4d	[	4f#X	[	4r	[	4r	[	V
4B-)	>]	4g)	>]	(8ee-L	>	(8eee-L	>	i6
.	.	.	.	8ddJ)	]]	8dddJ)	]]	.
=59	=59	=59	=59	=59	=59	=59	=59	=59
[2.GG	<	4D	.	4B- 4d	.	4ddd'	.	i
.	.	4r	.	4r	.	(4ee-	.	.
.	.	(8E-L	<	(8e-L	<	4cc	.	.
.	.	8DJ)	.	8dJ)	.	.	.	.
=60	=60	=60	=60	=60	=60	=60	=60	=60
(4GG]	.	4D	.	4d	.	4a	.	V(2)
4FF#X	[	4r	[	4r	[	4dd	.	V6
4GG)	>]	(8E-L	>	(8e-L	>	4b-)	>]	i
.	.	8DJ)	]]	8dJ)	]]	.	.	.
=61	=61	=61	=61	=61	=61	=61	=61	=61
!LO:TX:b:i:t=cresc.	!	!LO:TX:b:i:t=cresc.	!	!LO:TX:b:i:t=cresc.	!	!LO:TX:b:i:t=cresc.	!	!
4DD	.	[2.g	.	[2.gg	.	(4bb-	.	i64
4r	.	.	.	.	.	4eee-	.	.
(8EE-L	.	.	.	.	.	4ccc	.	iv6
8DDJ)	.	.	.	.	.	.	.	.
=62	=62	=62	=62	=62	=62	=62	=62	=62
4DD	.	(4g]	.	(4gg]	.	4aa	.	V(4)
4r	.	4f#X	.	4ff#X	.	4ddd	.	V
(8EE-L	.	4g)	.	4gg)	.	4bb-)	.	i64
8DDJ)	.	.	.	.	.	.	.	.
=63	=63	=63	=63	=63	=63	=63	=63	=63
8E-'L	f	8G'L	f	8gg'L	f	4gg'	f	V43/iv
8D'J	.	8fn'J	.	8ffn'J	.	.	.	.
8C'L	.	8e-'L	.	8ee-'L	.	[2ggg	.	iio
8BB-'J	.	8d'J	.	8dd'J	.	.	.	.
8AA'L	.	8c'L	.	8cc'L	.	.	.	.
8GG'J	.	8B-'J	.	8b-'J	.	.	.	.
=64	=64	=64	=64	=64	=64	=64	=64	=64
8AA'L	.	8c#X'L	.	8en'L	.	4ggg]	.	V7/V
8D'J	.	8cn'J	.	8e-X'J	.	.	.	.
8D'L	.	8C'L	.	8ee-'L	.	2fff#Xt	.	V7
8DD'J	.	8B-'J	.	8dd'J	.	.	.	.
8DD'L	.	8A'L	.	8dd'L	.	.	.	.
8D'J	.	8D'J 8A	.	8cc'J	.	.	.	.
.	.	.	.	.	.	(16qqeeen/LL	.	.
.	.	.	.	.	.	16qqfff#/JJ)	.	.
=65	=65	=65	=65	=65	=65	=65	=65	=65
4GG'	f	4D' 4G	f	4d' 4b-	f	4ggg'	f	i
4GG'	.	4G'	.	4G'	.	4G'	.	.
4GG'	.	4G'	.	4G'	.	4G'	.	.
=66	=66	=66	=66	=66	=66	=66	=66	=66
4GG'	.	4G'	.	4G'	.	4G'	.	i\\
!	!	!LO:TX:a:t=ten.	!	!	!	!	!	!
4r	.	4d	p	4r	.	4r	.	.
4r	.	4d	.	4r	.	4r	.	.
=67	=67	=67	=67	=67	=67	=67	=67	=67
2.r	.	[2.d	.	4r	.	2.r	.	i64
!	!	!	!	!LO:TX:a:t=ten.	!	!	!	!
.	.	.	.	4b-	p	.	.	.
.	.	.	.	4b-	.	.	.	.
=68	=68	=68	=68	=68	=68	=68	=68	=68
4r	.	2.d]	.	4b-	.	4r	.	i64
!LO:TX:a:t=ten.	!	!	!	!	!	!LO:TX:a:t=ten.	!	!
4a	p	.	.	4cc	.	4fff#X	p	V7
4a	.	.	.	4cc	.	4fff#t	.	.
.	.	.	.	.	.	16qqeeen/LL	.	.
.	.	.	.	.	.	16qqfff#/JJ	.	.
=69	=69	=69	=69	=69	=69	=69	=69	=69
4GG'	f	4G' 4d	f	4d' 4bn	f	4ggg'	f	i
4GG'	.	4G'	.	4G'	.	4G'	.	.
4GG'	.	4G'	.	4G'	.	4G'	.	.
=70	=70	=70	=70	=70	=70	=70	=70	=70
4GG'	.	4r	.	4G'	.	4G'	.	i\\
!	!	!LO:TX:a:t=ten.	!	!	!	!	!	!
4r	.	4d	p	4r	.	4r	.	.
4r	.	4d	.	4r	.	4r	.	.
=71	=71	=71	=71	=71	=71	=71	=71	=71
4r	.	[2.d	.	4r	.	2.r	.	I64
*clefG2	*	*	*	*	*	*	*	*
!LO:TX:a:t=ten.	!	!	!	!LO:TX:a:t=ten.	!	!	!	!
4gg	p	.	.	4bn	p	.	.	.
4gg	.	.	.	4b	.	.	.	.
=72	=72	=72	=72	=72	=72	=72	=72	=72
4gg	.	2.d]	.	4bn	.	4r	.	i64
!	!	!	!	!	!	!LO:TX:a:t=ten.	!	!
4aa	.	.	.	4cc	.	4ff#X	pp	V7
4aat	.	.	.	4ccT	.	4ff#t	.	.
16qqgg/LL	.	.	.	16qqb-X/LL	.	16qqeen/LL	.	.
16qqaa/JJ	.	.	.	16qqcc/JJ	.	16qqff#/JJ	.	.
=73	=73	=73	=73	=73	=73	=73	=73	=73
2.r	.	2.r	.	2.r	.	2.r	.	.
=74	=74	=74	=74	=74	=74	=74	=74	=74
4r	.	4r	.	4r	.	4r	.	.
*clefF4	*	*	*	*	*	*	*	*
!	!	!	!	!	!	!LO:TX:a:t=ten.	!	!
4D	pp	4c	pp	4A	pp	4f#X	pp	V7
(16EnLL	.	4c	.	4A	.	4f#	.	.
16D	.	.	.	.	.	.	.	.
16E	.	.	.	.	.	.	.	.
16DJJ)	.	.	.	.	.	.	.	.
.	.	16qqBn/LL	.	16qqG/LL	.	16qqen/LL	.	.
.	.	16qqc/JJ	.	16qqA/JJ	.	16qqf#/JJ	.	.
=75||	=75||	=75||	=75||	=75||	=75||	=75||	=75||	=75||
*k[f#]	*	*k[f#]	*	*k[f#]	*	*k[f#]	*	*
*G:	*	*G:	*	*G:	*	*G:	*	*
*M2/4	*	*M2/4	*	*M2/4	*	*M2/4	*	*
*	*	*	*	*^	*	*^	*	*
!	!	!	!	!	!	!	!LO:TX:a:B:t=Maestoso	!	!	!
*	*	*	*	*v	*v	*	*	*	*	*
*	*	*	*	*	*	*v	*v	*	*
*MM70	*	*MM70	*	*MM70	*	*MM70	*	*
*	*	*	*	*^	*	*^	*	*
!	!	!	!	!	!	!	!LO:TX:a:t=[quarter]=70	!	!	!
2GG 2D	f	2D 2B	f	2b	2G 2d	f	2gg	2G 2d 2b	f	III.I
*	*	*	*	*v	*v	*	*	*	*	*
*	*	*	*	*	*	*v	*v	*	*
=76	=76	=76	=76	=76	=76	=76	=76	=76
8GG' 8D	.	8D' 8B	.	8G' 8d 8b	.	8G' 8d 8b 8gg	.	.
4AA	sf	4D 4c	sf	4d 4f#	sf	4dd	sf	V43
8AA'	.	8D' 8c	.	8d' 8f#	.	8dd'	.	.
=77	=77	=77	=77	=77	=77	=77	=77	=77
*	*	*	*	*^	*	*^	*	*
2GG 2D	.	2D 2B	.	2gg	2G 2d 2b	.	2bb	2G 2d 2dd	.	I
*	*	*	*	*v	*v	*	*	*	*	*
*	*	*	*	*	*	*v	*v	*	*
=78	=78	=78	=78	=78	=78	=78	=78	=78
8GG' 8D	.	8D' 8B	.	8G' 8d 8b 8gg	.	8G 8d 8dd 8bb	.	.
4C	sf	4D 4d	sf	4ff#	sf	4aa	sf	V2
8C'	.	8D' 8d	.	8ff#'	.	8aa'	.	.
=79	=79	=79	=79	=79	=79	=79	=79	=79
4.BB	sf	4.G 4.d	sf	4.b 4.gg	sf	4.ddd	sf	I6
8E'	.	8G' 8g	.	8gg'	.	8bb'	.	vi
=80	=80	=80	=80	=80	=80	=80	=80	=80
4.CC 4.C	p >	4.C 4.G	>	8g 8ee	>	8.eeeL	>	IV
!	!	!	!	!	!LO:DY:a	!	!	!
.	.	.	.	4G 4e	p p	.	.	.
.	.	.	.	.	.	32dd#XLL	.	.
.	.	.	.	.	.	32eeJJJ	.	.
.	.	.	.	.	.	(48dd#LLL	]	.
.	.	.	.	.	.	48ee	.	.
.	.	.	.	.	.	48dd#	.	.
.	.	.	.	.	.	48ee	.	.
.	.	.	.	.	.	48dd#	.	.
.	.	.	.	.	.	48eeJJJ)	.	.
8CC 8C	]	[8C [8G	] p	[8G [8e	]	(64dd#LLLL	.	.
.	.	.	.	.	.	64ee	.	.
.	.	.	.	.	.	64dd#	.	.
.	.	.	.	.	.	64ee	.	.
.	.	.	.	.	.	64dd#	.	.
.	.	.	.	.	.	64ee	.	.
.	.	.	.	.	.	64ff#	.	.
.	.	.	.	.	.	64eeJJJJ)	.	.
=81||	=81||	=81||	=81||	=81||	=81||	=81||	=81||	=81||
*M3/4	*	*M3/4	*	*M3/4	*	*M3/4	*	*
!	!	!	!	!	!	!LO:TX:a:B:t=Allegro	!	!
*MM120	*	*MM120	*	*MM120	*	*MM120	*	*
!	!	!	!	!	!	!LO:TX:a:t=[quarter]=120	!	!
(2.c	.	4C] 4G]	.	4G] 4e]	.	(4ee	.	IV64
.	.	(4C	.	(8f#L	.	4aa	.	viio64
.	.	.	.	8gJ	.	.	.	.
.	.	4c	.	[4a)	.	4ff#	.	.
=82	=82	=82	=82	=82	=82	=82	=82	=82
2.B	.	4d	.	(4a]	.	4dd	.	I6
.	.	8eL	.	4d	.	4gg	.	.
.	.	8f#J	.	.	.	.	.	.
.	.	[4G)	.	[4g)	.	4ee)	.	vi6
=83	=83	=83	=83	=83	=83	=83	=83	=83
2.A	.	(4G]	.	8gL]	.	(8ddL	.	ii2
.	.	.	.	(8eJ	.	8ccJ)	.	.
.	.	4c	.	4a	.	(8ccL	.	ii
.	.	.	.	.	.	8bJ	.	.
.	.	4A)	.	[4f#)	.	4cc')	.	viio6
=84	=84	=84	=84	=84	=84	=84	=84	=84
2.B	.	(4d	.	(4f#]	.	(2dd	.	I
.	.	[2G)	.	4g	.	.	.	.
.	.	.	.	4fn	.	(4dd#X)	.	V7(#5)/IV
=85	=85	=85	=85	=85	=85	=85	=85	=85
2.c	.	(4G]	.	4e	.	4ee	.	IV64
.	.	[2C)	.	4A	.	4aa	.	ii6
.	.	.	.	[4a	.	[4ff#)	.	V2
=86	=86	=86	=86	=86	=86	=86	=86	=86
2.d	.	(4C]	.	4a]	.	(4ff#]	.	V2
.	.	2D	.	4B	.	4bb	.	I64
.	.	.	.	(4b)	.	[4gg)	.	.
=87	=87	=87	=87	=87	=87	=87	=87	=87
2e	.	4E	.	4cc	.	(4gg]	.	IV6
.	.	4e)	.	4c	.	4ccc	.	.
[4f#	.	8F#L	.	[4d) [4cc	.	[4aa)	.	V65
.	.	8f#J	.	.	.	.	.	.
=88	=88	=88	=88	=88	=88	=88	=88	=88
4f#]	.	(8dL	.	(8dL] 8cc]	.	(4aa]	.	V2
.	.	8cJ	.	8f#XJ	.	.	.	.
4g)	.	8BL	.	8gL	.	8bbL	.	I6
.	.	8A	.	8a	.	8ccc	.	.
(4GG	.	8G	.	8b	.	8ddd	.	I
.	.	8FnJ)	.	8BJ)	.	8ddd#XJ)	.	V7(#5)/IV
=89	=89	=89	=89	=89	=89	=89	=89	=89
*^	*	*	*	*	*	*^	*	*
!LO:TX:a:i:t=cresc.	!	!	!LO:TX:a:i:t=cresc.	!	!LO:TX:a:i:t=cresc.	!	!LO:TX:a:i:t=cresc.	!	!	!
(4CC)	2.CC	.	(4E	.	(4e	.	2.eee	4r	.	ii6
[2C	.	.	4A	.	4a	.	.	4r	.	ii6
.	.	.	[4F#X	.	[4f#	.	.	4ee	.	vii%43
*v	*v	*	*	*	*	*	*	*	*	*
=90	=90	=90	=90	=90	=90	=90	=90	=90	=90
4C]	.	4F#]	.	4f#]	.	2.dddn	4r	.	I6
[2BB	.	4B	.	4b	.	.	4r	.	I6
.	.	[4G	.	[4g	.	.	4dd	.	.
=91	=91	=91	=91	=91	=91	=91	=91	=91	=91
4BB]	.	4G]	.	4g]	.	2.ccc	4r	.	ii
[2AA	.	4c	.	4cc	.	.	4r	.	ii
.	.	[4A	.	[4a	.	.	4cc	.	.
=92	=92	=92	=92	=92	=92	=92	=92	=92	=92
4AA]	.	4A]	.	4a]	.	2.bb	4r	f	I(2)
4GG	f	4d	f	4dd	f	.	4r	.	I
4D)	.	4B)	.	4b)	.	.	4b	.	.
*	*	*	*	*	*	*v	*v	*	*
=93	=93	=93	=93	=93	=93	=93	=93	=93
(4FFn	f	4G'	f	4g'	f	2b 2bb	f	V2/IV
4D	.	(8GL	.	(8gL	.	.	.	.
.	.	8AJ	.	8aJ	.	.	.	.
4GG)	.	4B')	.	4b')	.	[4ddd	.	I
=94	=94	=94	=94	=94	=94	=94	=94	=94
(4EE	>	4r	.	4r	.	(4ddd]	>	IV6(2)
4GG	.	(8eL	>	(8eeL	>	4ccc)	.	IV64
.	.	8f#J	.	8ff#J	.	.	.	.
4EE-X)	]]	4g')	]]	4gg')	]]	(8cccL	.	iv6
.	.	.	.	.	.	8aaJ)	]]	.
=95	=95	=95	=95	=95	=95	=95	=95	=95
(4DD	p	4r	.	4r	.	(4aa	p	V64(2)
4BB	.	(8BL	p	(8bL	p	4gg	.	I6
.	.	8cJ	.	8ccJ	.	.	.	.
4GG)	.	4e')	.	4dd')	.	4bb)	.	I
=96	=96	=96	=96	=96	=96	=96	=96	=96
(4DD	.	4r	.	4r	.	(4ee-X	.	V7(b9)
4C	.	(8AL	.	(8aL	.	4dd	.	V2
.	.	8B	.	8b	.	.	.	.
4AA	.	8c	.	8cc	.	8eenL	.	V43
.	.	8dJ)	.	8ddJ)	.	8ff#J)	.	.
=97	=97	=97	=97	=97	=97	=97	=97	=97
4GG)	.	4B	.	4b	.	(4gg	.	I
4r	.	4r	.	4r	.	4ccc	.	.
4r	.	[4c	.	4r	.	[4aa	.	V2
=98	=98	=98	=98	=98	=98	=98	=98	=98
2.r	.	(4c]	.	[2.g	.	4aa]	.	I6(72)
.	.	4B	.	.	.	4ddd	.	I6
.	.	4d)	.	.	.	4bb)	.	I64
=99	=99	=99	=99	=99	=99	=99	=99	=99
4r	.	(2.G	.	(4g]	.	2.r	.	V7(4)
4r	.	.	.	4cc	.	.	.	.
[4c	p	.	.	[4a)	.	.	.	.
=100	=100	=100	=100	=100	=100	=100	=100	=100
(4c]	.	2.Fn	.	(4a]	.	2.r	.	viio/IV
4B	.	.	.	4dd	.	.	.	.
4d)	.	.	.	[4b)	.	.	.	.
=101	=101	=101	=101	=101	=101	=101	=101	=101
(2.g	.	2.E-X	.	(4b]	.	2.r	.	iv6
.	.	.	.	4ee-X	.	.	.	.
.	.	.	.	[4cc)	.	.	.	.
=102	=102	=102	=102	=102	=102	=102	=102	=102
2.fn)	.	2.D)	.	(4cc]	.	[2.gg	p	V43/IV
.	.	.	.	4b	.	.	.	.
.	.	.	.	8ccL	.	.	.	.
.	.	.	.	8ddJ)	.	.	.	.
=103	=103	=103	=103	=103	=103	=103	=103	=103
!	!	!	!	!LO:TX:b:i:t=cresc.	!	!	!	!
!LO:TX:b:i:t=cresc.	!	!LO:TX:b:i:t=cresc.	!	!LO:TX:a:i:t=cresc.	!	!	!	!
(2.GG	.	(2.C	.	2.ee-X	.	(4gg]	.	iv64
.	.	.	.	.	.	4ccc	.	.
.	.	.	.	.	.	[4aa)	.	.
=104	=104	=104	=104	=104	=104	=104	=104	=104
2.FFn	.	2.Fn [2.G	.	2.dd	.	(4aa]	.	V2(9)/IV
.	.	.	.	.	.	4ddd	.	V2/IV
.	.	.	.	.	.	[4bb)	.	.
=105	=105	=105	=105	=105	=105	=105	=105	=105
2.EE-X	.	(4G])	.	2.gg	.	(4bb]	.	iv6(7)
.	.	4c	.	.	.	4eee-X	.	iv6
.	.	[4A)	.	.	.	[4ccc)	.	.
=106	=106	=106	=106	=106	=106	=106	=106	=106
2.DD)	.	(4A]	.	[2.ffn	.	(4ccc]	.	V43(94)/IV
.	.	4G	.	.	.	4bb	.	V43/IV
.	.	8AL	.	.	.	8cccL	.	.
.	.	8BJ)	.	.	.	8dddJ)	.	.
=107	=107	=107	=107	=107	=107	=107	=107	=107
(4CC	f	2.C 2.c	f	4ff]	f	2.eee-X	f	vi.i
4G	.	.	.	(8ee-XL	.	.	.	.
.	.	.	.	8ffnJ	.	.	.	.
4C)	.	.	.	4gg')	.	.	.	.
=108	=108	=108	=108	=108	=108	=108	=108	=108
(4BB-X	.	2.C 2.c	f	4r	.	2.eee-X	f	i2
4G	.	.	.	(8ccL	f	.	.	.
.	.	.	.	8ddJ	.	.	.	.
4C)	.	.	.	4ee-X')	.	.	.	.
=109	=109	=109	=109	=109	=109	=109	=109	=109
(4AAn	.	[2.C [2.c	f	4r	.	2eee-X	f	V65/iv
4Fn	.	.	.	(8ccL	f	.	.	.
.	.	.	.	8ddJ	.	.	.	.
4C)	.	.	.	4een')	.	[4ggg	.	I
=110	=110	=110	=110	=110	=110	=110	=110	=110
(4AA-X	>	2.C] 2.c]	.	4r	.	(4ggg]	>	iv6(2)
8FnL	.	.	.	(8ccL	>	4fffn)	.	iv
8CJ	.	.	.	8eeJ	.	.	.	.
4AA-)	]]	.	.	[4ffn)	]]	(8fffL	.	iv6
.	.	.	.	.	.	8dddJ)	]]	.
=111	=111	=111	=111	=111	=111	=111	=111	=111
(4GG	p	(4C	p	(4ff]	p	(4ddd	p	i64(119)
4E-X	.	[2g)	.	8ee-XL	.	4ccc	.	i6
.	.	.	.	8ffnJ	.	.	.	.
4C)	.	.	.	[4gg)	.	[4eee-X)	.	i
=112	=112	=112	=112	=112	=112	=112	=112	=112
!LO:TX:b:i:t=dim.	!	!	!	!	!	!	!	!
!LO:TX:a:i:t=dim.	!	!LO:TX:a:i:t=dim.	!	!	!	!LO:TX:b:i:t=dim.	!	!
(4GG	.	(8gL]	.	8ggL]	.	8eee-L]	.	i64
.	.	8cJ	.	(8e-XJ	.	(8GJ	.	.
[2CC)	.	8BnL	.	8fnL	.	4a-X	.	VI6
.	.	8cJ	.	8e-	.	.	.	.
.	.	8E-XL	.	8c	.	8gL	.	i
.	.	8DJ	.	8fJ	.	8bnJ	.	i(1197)
=113	=113	=113	=113	=113	=113	=113	=113	=113
(4CC]	pp	8CL)	pp	4e-X)	pp	4cc)	pp	i\\
.	.	(8GJ	.	.	.	.	.	.
4FFn	.	4a-X	.	4r	.	4r	.	iv
[4DD	.	8gL	.	4r	.	4r	.	V64
.	.	8bnJ	.	.	.	.	.	.
=114	=114	=114	=114	=114	=114	=114	=114	=114
4DD]	.	4cc)	.	([2.c	.	2.r	.	i6
4GG	.	4r	.	.	.	.	.	.
4EE-X	.	4r	.	.	.	.	.	.
=115	=115	=115	=115	=115	=115	=115	=115	=115
(8CCL)	.	4r	.	4c]	.	2.r	.	V65
8CJ	.	.	.	.	.	.	.	.
4A-X	.	(4c	.	4fn	.	.	.	.
8GL	.	4fn)	.	[4d	.	.	.	.
8BnJ)	.	.	.	.	.	.	.	.
=116	=116	=116	=116	=116	=116	=116	=116	=116
4c	.	(4Fn	.	4d]	.	(2.cc	.	i64
4r	.	4E-X	.	4g	.	.	.	.
4r	.	4G)	.	[4e-X	.	.	.	.
=117||	=117||	=117||	=117||	=117||	=117||	=117||	=117||	=117||
*k[b-e-a-]	*	*k[b-e-a-]	*	*k[b-e-a-]	*	*k[b-e-a-]	*	*
*E-:	*	*E-:	*	*E-:	*	*E-:	*	*
2.r	.	(2.c	.	4e-]	.	2.ee-	.	I.ii43
.	.	.	.	4a-	.	.	.	.
.	.	.	.	[4f	.	.	.	.
=118	=118	=118	=118	=118	=118	=118	=118	=118
!LO:TX:b:i:t=cresc.	!	!LO:TX:b:i:t=cresc.	!	!LO:TX:b:i:t=cresc.	!	!LO:TX:b:i:t=cresc.	!	!
[2.EE-	.	2.B-	.	4f]	.	2.dd-X	.	V7/IV
.	.	.	.	4b-	.	.	.	.
.	.	.	.	[4g)	.	.	.	.
=119	=119	=119	=119	=119	=119	=119	=119	=119
(4EE-]	.	2.A-	.	(4g]	.	2.cc	.	ii
4AA-	.	.	.	4c	.	.	.	.
4FF	.	.	.	[4f)	.	.	.	.
=120	=120	=120	=120	=120	=120	=120	=120	=120
4DD-X	.	2G	.	(4f]	.	2.b-)	.	I
4GG	.	.	.	4B-	.	.	.	.
4EE-)	.	4g)	.	4e-)	.	.	.	.
=121	=121	=121	=121	=121	=121	=121	=121	=121
8CC'L	ff	8g-XL	ff	8e-L	ff	4an	ff	#viio65/V
8C'J	.	8cJ 8e-	.	8AnJ 8g-X	.	.	.	.
.	.	.	.	.	.	16qqa/	.	.
8E-'L	.	8cL 8e-	.	8AL 8g-	.	4gg-X'	.	.
8G-X'	.	8c 8e-	.	8A 8g-	.	.	.	.
.	.	.	.	.	.	16qqa/	.	.
8An'	.	8c 8e-	.	8A 8g-	.	4gg-'	.	.
8c'J	.	8cJ 8e-	.	8AJ 8g-	.	.	.	.
=122	=122	=122	=122	=122	=122	=122	=122	=122
.	.	.	.	.	.	16qqan/	.	.
4e-	.	8c'L 8e-	.	4An 4g-X	.	4.gg-X	.	.
.	.	8e-'	.	.	.	.	.	.
.	.	.	.	16qqan/	.	.	.	.
(4GG-X	.	8c'	.	4gg-X'	.	.	.	.
.	.	8An'J	.	.	.	8An'L	.	.
.	.	.	.	16qqa/	.	.	.	.
4EE-)	.	8G-X'L	.	4gg-'	.	8c'	.	.
.	.	8E-'J	.	.	.	8e-'J	.	.
=123	=123	=123	=123	=123	=123	=123	=123	=123
4CC'	.	4e-	.	8gg-X'L	.	8g-X'L	.	.
.	.	.	.	8ee-'	.	8an'	.	.
.	.	16qqAn/	.	.	.	.	.	.
(4GG-X	.	4g-X'	.	8cc'	.	8cc'	.	.
.	.	.	.	8an'J	.	8ee-'J	.	.
.	.	16qqA/	.	.	.	.	.	.
4EE-)	.	4g-'	.	8g-X'L	.	8gg-X'L	.	.
.	.	.	.	8e-'J	.	8aan'J	.	.
=124	=124	=124	=124	=124	=124	=124	=124	=124
.	.	16qqAn/	.	.	.	.	.	.
4CC	.	4g-X'	.	8ee-'L	.	8ccc'L	.	.
.	.	.	.	8cc'J	.	8eee-'J	.	.
.	.	16qqC/	.	.	.	.	.	.
(4GG-X	.	4G-X'	.	8an'L	.	8eee-'L	.	.
.	.	.	.	8a'J 8cc	.	8ggg-X'J	.	.
.	.	16qqC/	.	.	.	.	.	.
4EE-)	.	4G-'	.	8a'L 8cc	.	8ggg-'L	.	.
.	.	.	.	8c'J	.	8an'J	.	.
=125	=125	=125	=125	=125	=125	=125	=125	=125
8DD-X'L	.	8FL	.	8d-XL 8f	.	4b-	.	v6
8FF'J	.	8D-XJ 8B-	.	8d- 8f	.	.	.	.
.	.	.	.	.	.	16qqb-/	.	.
8BB-'L	.	8D-L 8B-	.	8d- 8f	.	4ff'	.	.
8D-X'J	.	8D- 8B-	.	8d- 8f	.	.	.	.
.	.	.	.	.	.	16qqb-/	.	.
8F'L	.	8D- 8B-	.	8d- 8f	.	4ff'	.	.
8B-'J	.	8D-J 8B-	.	8d-J 8f	.	.	.	.
=126	=126	=126	=126	=126	=126	=126	=126	=126
.	.	.	.	.	.	16qqb-/	.	.
4DD-X'	.	8b-'L	.	4d-X 4f	.	4.ff	.	.
.	.	8f'J	.	.	.	.	.	.
.	.	.	.	16qqb-/	.	.	.	.
(4BB-	.	8d-X'L	.	4ff'	.	.	.	.
.	.	8B-'J	.	.	.	8B-'L	.	.
.	.	.	.	16qqb-/	.	.	.	.
4FF)	.	8F'L	.	4ff'	.	8d-X'	.	.
.	.	8D-X'J	.	.	.	8f'J	.	.
=127	=127	=127	=127	=127	=127	=127	=127	=127
4DD-X'	.	4f	.	8ff'L	.	8b-'L	.	.
.	.	.	.	8dd-X'J	.	8dd-X'J	.	.
.	.	16qqB-/	.	.	.	.	.	.
(4BB-	.	4f'	.	8b-'L	.	8ff'L	.	.
.	.	.	.	8f'J	.	8bb-'J	.	.
.	.	16qqB-/	.	.	.	.	.	.
4FF)	.	4f'	.	8d-X'L	.	8ddd-X'L	.	.
.	.	.	.	8B-'J	.	8fff'J	.	.
=128	=128	=128	=128	=128	=128	=128	=128	=128
.	.	16qqB-/	.	.	.	.	.	.
4DD-X'	.	4f'	.	8ff'L	.	8fff'L	.	.
.	.	.	.	8dd-X'J	.	8bbb-'J	.	.
.	.	16qqD-X/	.	.	.	.	.	.
(4BB-	.	4F	.	8b-'L	.	4bbb-	.	.
.	.	.	.	8f'J	.	.	.	.
.	.	16qqF/	.	.	.	.	.	.
4FF)	.	4B-	.	8d-X'L	.	4b-	.	.
.	.	.	.	8B-'J	.	.	.	.
=129	=129	=129	=129	=129	=129	=129	=129	=129
8DD-X'L	.	8FL 8A-	.	8BnL 8a-	.	4bn	.	ii.Ger6
8FF'J	.	8F 8A-	.	8B 8a-	.	.	.	.
.	.	.	.	.	.	16qqb/	.	.
8AA-'L	.	8F 8A-	.	8B 8a-	.	4ff'	.	.
8D-X'J	.	8F 8A-	.	8B 8a-	.	.	.	.
.	.	.	.	.	.	16qqb/	.	.
8F'L	.	8F 8A-	.	8B 8a-	.	4ff'	.	.
8A-'J	.	8FJ 8A-	.	8BJ 8a-	.	.	.	.
=130	=130	=130	=130	=130	=130	=130	=130	=130
.	.	.	.	.	.	16qqbn/	.	.
4DD-X'	.	8a-'L	.	4Bn 4a-	.	4.ff	.	.
.	.	8f'J	.	.	.	.	.	.
.	.	.	.	16qqbn/	.	.	.	.
(4AA-	.	8Bn'L	.	4aa-'	.	.	.	.
.	.	8A-'	.	.	.	8f'L	.	.
.	.	.	.	16qqb/	.	.	.	.
4FF)	.	8F'	.	4aa-'	.	8a-'	.	.
.	.	8D-X'J	.	.	.	8b'J	.	.
=131	=131	=131	=131	=131	=131	=131	=131	=131
.	.	.	.	16qqbn/	.	.	.	.
4DD-X'	.	4F 4A-	.	8aa-'L	.	8ff'L	.	.
.	.	.	.	8ff'J	.	8aa-'J	.	.
.	.	16qqBn/	.	.	.	.	.	.
(4AA-	.	4a-'	.	8ff'L	.	8bbn'L	.	.
.	.	.	.	8b'J	.	8fff'	.	.
.	.	16qqB/	.	.	.	.	.	.
4FF)	.	4a-'	.	8a-'L	.	8fff'	.	.
.	.	.	.	8f'J	.	8ggg'J	.	.
=132	=132	=132	=132	=132	=132	=132	=132	=132
.	.	16qqBn/	.	.	.	.	.	.
4DD-X'	.	4a-'	.	8ff'L	.	8ggg'L	.	.
.	.	.	.	8bn'J	.	8aaa-'J	.	.
.	.	16qqD-X/	.	.	.	.	.	.
(4AA-	.	4A-'	.	8fL 8b	.	8aaa-'	.	.
.	.	.	.	8f 8b	.	8ff'	.	.
.	.	16qqD-/	.	.	.	.	.	.
4FF)	.	4A-'	.	8f 8b	.	4ffT	.	.
.	.	.	.	8fJ 8b	.	.	.	.
.	.	.	.	.	.	(16qqeen/LL	.	.
.	.	.	.	.	.	16qqff/JJ)	.	.
=133	=133	=133	=133	=133	=133	=133	=133	=133
4CC'	.	4C'	.	4c'	.	8cccL	.	V
.	.	.	.	.	.	8eenJ	.	.
(4C	.	(4c	.	(4cc	.	8ee	.	.
.	.	.	.	.	.	8c	.	.
4GG)	.	4G)	.	4g)	.	4ccT	.	.
.	.	.	.	.	.	(16qqbn/LL	.	.
.	.	.	.	.	.	16qqcc/JJ)	.	.
=134	=134	=134	=134	=134	=134	=134	=134	=134
4CC'	.	4C'	.	4c'	.	8r	.	.
.	.	.	.	.	.	8eeen	.	.
(4G	.	(4g	.	(4gg	.	8eee	.	.
.	.	.	.	.	.	8cc	.	.
4En)	.	4en)	.	4een)	.	4cccT	.	V6\\
.	.	.	.	.	.	(16qqbbn/LL	.	.
.	.	.	.	.	.	16qqccc/JJ)	.	.
=135||	=135||	=135||	=135||	=135||	=135||	=135||	=135||	=135||
*k[]	*	*k[]	*	*k[]	*	*k[]	*	*
*C:	*	*C:	*	*C:	*	*C:	*	*
*M2/4	*	*M2/4	*	*M2/4	*	*M2/4	*	*
!	!	!	!	!	!	!LO:TX:a:B:t=Maestoso	!	!
*MM70	*	*MM70	*	*MM70	*	*MM70	*	*
!	!	!	!	!	!	!LO:TX:a:t=[quarter]=70	!	!
2CC 2GG	ff ff	2C 2G	.	2cc 2ee	ff	2cc 2ccc	ff	VI.I
=136	=136	=136	=136	=136	=136	=136	=136	=136
8CC' 8GG	.	8C' 8G	.	8G' 8e 8cc 8ee	.	8c' 8g 8ee 8ccc	.	.
4DD 4GG	sf sf	4D 4G	.	4f 4b	sf	4gg	sf	V43
8DD' 8GG	.	8D' 8G	.	8f' 8b	.	8gg'	.	.
=137	=137	=137	=137	=137	=137	=137	=137	=137
2CC 2GG	.	2C 2G	.	2e 2ee	.	2eee	.	I
=138	=138	=138	=138	=138	=138	=138	=138	=138
8CC' 8GG	.	8C' 8G	.	8cc' 8ee	.	8eee'	.	.
4FF 4GG	sf	4D 4B	sf	4b 4gg	sf	4ddd	sf	V2
8FF' 8GG	.	8D' 8B	.	8b' 8gg	.	8ddd'	.	.
=139||	=139||	=139||	=139||	=139||	=139||	=139||	=139||	=139||
*M3/4	*	*M3/4	*	*M3/4	*	*M3/4	*	*
!	!	!	!	!	!	!LO:TX:a:B:t=Allegro	!	!
*MM120	*	*MM120	*	*MM120	*	*MM120	*	*
!	!	!	!	!	!	!LO:TX:a:t=[quarter]=120	!	!
[2.EE [2.GG	f >	[2.C [2.G	f >	[2.cc [2.gg	f >	[2.ggg	f >	I6
=140	=140	=140	=140	=140	=140	=140	=140	=140
2EE] 2GG]	.	2.C_ 2.G_	p ]]	2cc] 2gg]	.	2ggg]	.	.
[4c	] p	.	.	[4e	] p	[4gg	] p	I64
=141	=141	=141	=141	=141	=141	=141	=141	=141
4.c]	.	4C] 4G]	.	4.e]	.	(4gg]	.	.
.	.	4r	.	.	.	4ccc	.	.
8c'L	.	.	.	8e'L	.	.	.	.
8B'	.	4r	.	8d'	.	4aa)	.	vi6
8c'J	.	.	.	8e'J	.	.	.	.
=142	=142	=142	=142	=142	=142	=142	=142	=142
8dd'L	.	2.r	.	8f'L	.	(8ggL	.	ii6
8ee'	.	.	.	8g'	.	8ffJ)	.	.
8ff'	.	.	.	8a'	.	(8ffL	.	IV6
8gg'	.	.	.	8b'	.	8eeJ	.	.
8aa'	.	.	.	8cc'	.	4ff')	.	viio6
8bb'J	.	.	.	8dd'J	.	.	.	.
=143	=143	=143	=143	=143	=143	=143	=143	=143
4ccc	.	(4g	.	8ee'L	.	4ee	.	I64
8ryy	.	4ryy	.	8e'	.	8ryy	.	.
8C'L	.	.	.	8e'J	.	8ee'	.	I
8BB'	.	4a)	.	8f'L	.	8dd'L	.	.
8C'J	.	.	.	8f'J	.	8ee'J	.	.
=144	=144	=144	=144	=144	=144	=144	=144	=144
8D'L	.	(8gL	.	8e'L	.	8ff'L	.	V43
8E'	.	8fJ)	.	8d'	.	8gg'J	.	.
8F'	.	(8fL	.	8d'	.	8aa'L	.	ii6
8G'	.	8eJ	.	8c'	.	8bb'J	.	I64
8A'	.	4f')	.	8c'	.	(12bbL	.	IV6
.	.	.	.	.	.	12ccc	.	.
8B'J	.	.	.	8gg'J	.	.	.	.
.	.	.	.	.	.	12dddJ)	.	V65
=145	=145	=145	=145	=145	=145	=145	=145	=145
8cL	.	4e	.	(4gg	.	4eee	.	I
8c	.	.	.	.	.	.	.	.
8c	.	8r	.	4ccc	.	8r	.	.
8c	.	8e'L	.	.	.	8ccc'L	.	.
8c	.	8d'	.	4aa	.	8bb'	.	vi6
8cJ	.	8e'J	.	.	.	8ccc'J	.	.
=146	=146	=146	=146	=146	=146	=146	=146	=146
8c'L	.	8f'L	.	8ggL	.	8dddL	.	V65(4)
8B'	.	8g'	.	8ffJ)	.	8eee'	.	V65
8A'	.	8a'	.	(8ffL	.	8fff'	.	IV6
8G'	.	8b'	.	8eeJ	.	8ggg'	.	I64
8F'	.	8cc#X'	.	4ff')	.	8aaa'	.	ii6
8D'J	.	8dd'J	.	.	.	8bbb'J	.	viio6
=147	=147	=147	=147	=147	=147	=147	=147	=147
4C'	f f	4G' 4g	.	4ee'	f	4cccc'	f	I\\
.	.	.	.	.	.	8qff/	.	I.viio6
(4D-X	sf	(4d-X	sf	(4dd-X	sf	(8eeL	.	.
.	.	.	.	.	.	8ddJ	.	.
4BB-X)	.	4B-X)	.	4b-X)	.	4dd')	.	.
=148	=148	=148	=148	=148	=148	=148	=148	=148
4GG'	p	4G'	p	4g'	p	4r	.	.
.	.	.	.	.	.	8qf/	p	.
(4g	.	(4B-X	.	(4d-X	.	(8eL	.	.
.	.	.	.	.	.	8dJ	.	.
4e)	.	4G)	.	4B-X)	.	4e')	.	.
=149	=149	=149	=149	=149	=149	=149	=149	=149
4e'	.	4B-X'	.	4d-X'	.	4r	.	.
.	.	.	.	.	.	8qff/	.	.
(4D-X	.	(4G	.	(4g	.	(8eeL	.	.
.	.	.	.	.	.	8ddJ	.	.
4BB-X)	.	4d-X)	.	4dd-X)	.	4ee')	.	.
=150	=150	=150	=150	=150	=150	=150	=150	=150
4AA-X'	.	4c'	.	4cc'	.	4r	.	ii6
.	.	.	.	.	.	8qgg/	.	.
(4a-X	.	(4cc	.	(4A-X	.	(8ffL	.	.
.	.	.	.	.	.	8eeJ	.	.
4f)	.	4a-X)	.	4c)	.	4ff')	.	.
=151	=151	=151	=151	=151	=151	=151	=151	=151
4FF'	f f	4F'	.	4f'	f	4r	.	iv
.	.	.	.	.	.	8qgg/	f	.
(4C	sf	(4c	sf	(4cc	sf	(8ffL	.	.
.	.	.	.	.	.	8eeJ	.	.
4AA-X)	.	4A-X)	.	4a-X)	.	4ff')	.	.
=152	=152	=152	=152	=152	=152	=152	=152	=152
4FF'	p	4F'	p	4f'	p	4r	.	.
.	.	.	.	.	.	8qg/	p	.
(4c	.	(4a-X	.	(4cc	.	(8fL	.	.
.	.	.	.	.	.	8eJ	.	.
4A-X)	.	4f)	.	4ff)	.	4f')	.	.
=153	=153	=153	=153	=153	=153	=153	=153	=153
4F'	.	4c'	.	4aa-X'	.	4r	.	.
.	.	.	.	.	.	8qgg/	.	.
(4AA-X	.	(4C	.	(4ccc	.	(8ffL	.	.
.	.	.	.	.	.	8eeJ	.	.
4FF)	.	4A-X)	.	4aa-)	.	4ff')	.	.
=154	=154	=154	=154	=154	=154	=154	=154	=154
4EE'	.	4D-X' 4B-X	.	4gg'	.	4r	.	viio7/ii
.	.	.	.	.	.	8qaa-X/	.	.
(4d-X	.	(4b-X	.	(4en	.	(8ggL	.	.
.	.	.	.	.	.	8ffJ	.	.
4B-X)	.	4g)	.	4d-X)	.	4gg')	.	.
=155	=155	=155	=155	=155	=155	=155	=155	=155
4EE-X'	f f	4G' 4g	f	4G'	.	4r	.	V7
.	.	.	.	.	.	8qaa-X/	f	.
(4D-X	sf	(4d-X	sf	(4dd-X	sf	(8ggL	.	.
.	.	.	.	.	.	8ffJ	.	.
4BB-X)	.	4B-X)	.	4b-X)	.	4gg')	.	.
=156	=156	=156	=156	=156	=156	=156	=156	=156
4EE-X'	p	4G'	p	4g'	p	4r	.	.
.	.	.	.	.	.	8qa-X/	p	.
(4d-X	.	(4B-X	.	(4ff-X	.	(8gL	.	.
.	.	.	.	.	.	8fJ	.	.
4e-X)	.	4d-X)	.	4ee-X)	.	4g')	.	.
=157	=157	=157	=157	=157	=157	=157	=157	=157
4f-X'	.	4g'	.	4dd-X'	.	4r	.	.
.	.	.	.	.	.	8qaa-X/	.	.
4r	.	4D-X	.	4f-X	.	8ggL	.	.
.	.	.	.	.	.	8ffJ	.	.
4r	.	4E-X	.	4d-X	.	4gg'	.	.
=158	=158	=158	=158	=158	=158	=158	=158	=158
4r	.	4F-X'	.	4B-X'	.	4r	.	.
.	.	.	.	.	.	8qbb-X/	.	IV64
(4E-X	.	(4C	.	(4c	.	(8aa-XL	.	.
.	.	.	.	.	.	8ggJ	.	.
4C)	.	4E-X)	.	4A-X)	.	4aa-')	.	IV6
=159||	=159||	=159||	=159||	=159||	=159||	=159||	=159||	=159||
*k[b-e-a-]	*	*k[b-e-a-]	*	*k[b-e-a-]	*	*k[b-e-a-]	*	*
*E-:	*	*E-:	*	*E-:	*	*E-:	*	*
4AA-'	f f	4E-'	.	4c'	f	4r	.	IV
.	.	.	.	.	.	8qbb-/	f	.
(4E-	sf	(4e-	sf	(4ee-	sf	(8aa-L	.	.
.	.	.	.	.	.	8ggJ	.	.
4C)	.	4c)	.	4cc)	.	4aa-')	.	.
=160	=160	=160	=160	=160	=160	=160	=160	=160
4AA-'	p	4A-'	p	4a-'	p	4r	.	.
.	.	.	.	.	.	8qb-/	p	.
(4e-	.	(4c	.	(4a-	.	(8a-L	.	.
.	.	.	.	.	.	8gJ	.	.
4c)	.	4A-)	.	4e-)	.	4a-')	.	.
=161	=161	=161	=161	=161	=161	=161	=161	=161
4A-'	.	4E-'	.	4c'	.	4r	.	.
.	.	.	.	.	.	8qbb-/	.	.
(4C	.	(4c	.	(4e-	.	(8aa-L	.	.
.	.	.	.	.	.	8ggJ	.	.
4AA-)	.	4G)	.	4cc)	.	4aa-')	.	.
=162	=162	=162	=162	=162	=162	=162	=162	=162
4GG'	.	4En'	.	4dd-X'	.	4r	.	ii.viio65
.	.	.	.	.	.	8qccc/	.	.
(4GG	.	(4B-	.	(4G	.	(8bb-L	.	.
.	.	.	.	.	.	8aa-J	.	.
4DD-X)	.	4F)	.	4B-)	.	4bb-')	.	iv6
=163	=163	=163	=163	=163	=163	=163	=163	=163
4CC'	f f	4En'	f	4en'	.	4r	.	V7
.	.	.	.	.	.	8qccc/	f	.
(4GG	sf	(4B-	sf	(4b-	sf	(8bb-L	.	.
.	.	.	.	.	.	8aa-J	.	.
4DD-X)	.	4F)	.	4f)	.	4bb-')	.	iv6
=164	=164	=164	=164	=164	=164	=164	=164	=164
4CC'	p p	4En'	.	4en'	p	4r	.	V7
.	.	.	.	.	.	8qcc/	p	.
(4d-X	.	(4en	.	(4g	.	(8b-L	.	.
.	.	.	.	.	.	8a-J	.	.
4B-)	.	4g)	.	4b-)	.	4b-')	.	.
=165	=165	=165	=165	=165	=165	=165	=165	=165
4G'	.	4B-'	.	4en' 4dd-X	.	4r	.	viio65
!LO:TX:b:i:t=cresc.	!	!LO:TX:b:i:t=cresc.	!	!LO:TX:b:i:t=cresc.	!	!LO:TX:b:i:t=cresc.	!	!
.	.	.	.	.	.	8qccc/	.	.
(4GG	.	(4B-	.	(4b-	.	(8bb-L	.	.
.	.	.	.	.	.	8aa-J	.	.
4EEn)	.	4G)	.	4g)	.	4bb-')	.	.
=166	=166	=166	=166	=166	=166	=166	=166	=166
4CC'	.	4En'	.	4en'	.	4r	.	V
.	.	.	.	.	.	8qddd-X/	>	.
*	*	*^	*	*	*	*	*	*
(4AA-	>	(4C	[2C	>	(4cc	>	(8cccL	.	III
.	.	.	.	.	.	.	8bbnJ	.	.
8FFL	.	8A-L	.	.	8a-L	.	4ccc')	]]	V43
8GGJ	]]	8B-J	.	.	8gJ	]]	.	.	.
*	*	*v	*v	*	*	*	*	*	*
=167	=167	=167	=167	=167	=167	=167	=167	=167
2.AA-	p p	8CL]) 8c	]	2f	p	(4ccc	p	i6
.	.	(8CJ	.	.	.	.	.	.
.	.	8DnL	.	.	.	4fff	.	.
.	.	8E-XJ	.	.	.	.	.	.
.	.	[4F)	.	[4b-)	.	4dddn	.	I.V2
=168	=168	=168	=168	=168	=168	=168	=168	=168
2GG	.	(8FL]	.	(4b-]	.	4bb-X	.	I6
.	.	8D	.	.	.	.	.	.
.	.	8E-	.	4e-X	.	4eee-	.	.
.	.	8FJ	.	.	.	.	.	.
4AA-	.	4E-	.	4cc	.	4ccc)	.	IV
=169	=169	=169	=169	=169	=169	=169	=169	=169
4BB-	.	4D	.	2f	.	(8bb-L	.	V7
.	.	.	.	.	.	8aa-J)	.	.
4D	.	[2B-)	.	.	.	(8aa-L	.	V65
.	.	.	.	.	.	8ggJ	.	.
[4F)	.	.	.	[4a-)	.	4aa-')	.	V43
=170	=170	=170	=170	=170	=170	=170	=170	=170
(4F]	.	(4B-]	.	(4a-]	.	(2bb-	.	I
8E-L	.	8B-L	.	8gL	.	.	.	.
8F	.	8A-	.	8f	.	.	.	.
8G	.	8G	.	8e-	.	4bbn	.	I+6
8GGJ)	.	8FJ	.	8dJ	.	.	.	.
=171	=171	=171	=171	=171	=171	=171	=171	=171
(4AA-	.	8E-L	.	4c	.	8cccL	.	IV
.	.	8D	.	.	.	8bnJ	.	.
[2A-)	.	8C	.	4f	.	8ccL	.	ii64
.	.	8cJ	.	.	.	8eenJ	.	.
.	.	8FL	.	4c-X) 4d	.	8ffL	.	viio43
.	.	[8fJ)	.	.	.	8ddJ)	.	.
=172	=172	=172	=172	=172	=172	=172	=172	=172
4A-]	.	(8fL]	.	(4B- 4d	.	(8ccL	.	V2
.	.	8FJ	.	.	.	8b-XJ)	.	.
[2G	.	4B-	.	4e-	.	(8b-L	.	I6
.	.	.	.	.	.	8dd	.	.
.	.	[4E-)	.	4cn)	.	8ee-X	.	vi6
.	.	.	.	.	.	8ccJ)	.	.
=173	=173	=173	=173	=173	=173	=173	=173	=173
4G]	.	8E-L]	.	8B-L	.	(8b-L	.	I
.	.	8CJ	.	8A-J	.	8aa-J)	.	.
4F	.	2D	.	(8A-L	.	(8aa-L	.	vii%7
.	.	.	.	8GJ	.	8ccc	.	.
[4BB-	.	.	.	4A-')	.	8bb-	.	V7
.	.	.	.	.	.	8aa-J)	.	.
=174	=174	=174	=174	=174	=174	=174	=174	=174
8BB-L]	.	(8E-L	.	4G	.	(8aa-L	.	I
8E-	.	8G	.	.	.	8gg	.	.
8F	.	8A-	.	4r	.	8dd	.	viio6
8G	.	8B-	.	.	.	8ee-	.	I6
8A-	.	8c	.	4r	.	8ff	.	ii6
8B-J	.	8dJ)	.	.	.	8ggJ)	.	iii6
=175	=175	=175	=175	=175	=175	=175	=175	=175
(8BnL	.	(8dL	.	4r	.	(8gL	.	III6
8cJ)	.	8e-J)	.	.	.	8a-J)	.	IV6
(8cL	.	4r	.	(4.gg	.	(4A-	.	V(+6)/ii
8en	.	.	.	.	.	.	.	.
8f	.	4r	.	.	.	(4a-)	.	viio
8dJ)	.	.	.	8ff)	.	.	.	.
=176	=176	=176	=176	=176	=176	=176	=176	=176
(8cL	.	(8cL	.	4r	.	(8a-L)	.	ii64
8B-XJ)	.	8dJ)	.	.	.	8gJ)	.	iii6
(8B-L	.	4r	.	(4.ff	.	(4G	.	V(+6)
8d	.	.	.	.	.	.	.	.
8e-X	.	4r	.	.	.	(4g)	.	vi
8cJ)	.	.	.	8ee-)	.	.	.	.
=177	=177	=177	=177	=177	=177	=177	=177	=177
*	*	*^	*	*	*	*	*	*
(8B-L	.	4e-	(8B-L	.	4r	.	(8gL)	.	I64
8A-J)	.	.	8cJ)	.	.	.	8fJ)	.	ii6
(8A-L	.	4.e-	4.c	.	4.ee-	.	(2f	.	V65/V
8G	.	.	.	.	.	.	.	.	.
8A-	.	.	.	.	.	.	.	.	.
*	*	*v	*v	*	*	*	*	*	*
8AnJ	.	(8c	.	(8ee-	.	.	.	.
=178	=178	=178	=178	=178	=178	=178	=178	=178
8B-L	.	8B-L	.	8ddL	.	8f)	.	V7
8cJ	.	8A-	.	8ee-	.	(4f	.	.
*clefG2	*	*	*	*	*	*	*	*
8ddL	.	8G	.	8ff	.	.	.	.
8ee-	.	8F	.	8gg	.	8gL	.	@none
8ff	.	8E-	.	8aa-	.	8a-	.	.
8ggJ)	.	8D-XJ)	.	8bb-J	.	8b-J)	.	.
=179	=179	=179	=179	=179	=179	=179	=179	=179
!LO:TX:a:i:t=cresc.	!	!	!	!	!	!	!	!
!LO:TX:b:i:t=cresc.	!	!	!	!	!	!LO:TX:b:i:t=cresc.	!	!
(2.aa-	.	(8CL	.	4ccc)	.	(2cc	.	ii
.	.	8EnJ	.	.	.	.	.	.
.	.	8FL	.	4r	.	.	.	.
.	.	8E	.	.	.	.	.	.
!	!	!	!	!LO:TX:b:i:t=cresc.	!	!	!	!
.	.	8F	.	8r	.	4b-)	.	V43
.	.	8DnJ	.	(8f	.	.	.	.
=180	=180	=180	=180	=180	=180	=180	=180	=180
2.gg)	.	8E-XL	.	8B-L	.	(4b-	.	I
.	.	8D	.	8dJ	.	.	.	.
.	.	8E-	.	8e-L	.	4gg	.	.
.	.	8DJ	.	8d	.	.	.	.
.	.	8E-L	.	8e-	.	4ee-)	.	.
.	.	8CJ)	.	8cJ)	.	.	.	.
=181	=181	=181	=181	=181	=181	=181	=181	=181
(8ggL	.	4B-	.	(8B-L	.	(8ee-L	.	V7
8ffJ)	.	.	.	8a-J)	.	8ddJ)	.	.
(8ffL	.	4B-	.	(8a-L	.	(8ddL	.	.
8ee-J	.	.	.	8g	.	8ee-J	.	.
4dd')	.	4B-	.	8f	.	[4ff)	.	.
.	.	.	.	8a-J)	.	.	.	.
=182	=182	=182	=182	=182	=182	=182	=182	=182
4ee-'	.	8E-L 8B-	.	(8a-L	.	(8ffL]	.	I
*clefF4	*	*	*	*	*	*	*	*
4ryy	.	8E-L 8B-	.	8gL	.	8B-L	.	.
.	.	8E-J 8G	.	8B-J 8e-	.	8b-J	.	.
[4e-	f	8E-L 8G	f f	8B-L 8e-	.	8b-L	f	.
.	.	8E-J 8G	.	8B-J 8e-	.	8b-J	.	.
=183	=183	=183	=183	=183	=183	=183	=183	=183
2e-]	.	8E-L 8G	.	8B-L 8e-	.	8b-L	.	.
.	.	8E- 8G	.	8B- 8e-	.	8b-	.	.
.	.	8E- 8G	.	8B- 8e-	.	8b-	.	.
.	.	8E- 8G	.	8B-J 8e-	.	8b-J	.	.
*clefG2	*	*	*	*	*	*	*	*
(8ff'L	.	8E- 8G	.	8B-L 8e-	.	8b-L	.	.
8gg'J)	.	8E-J 8G	.	8B-J	.	8e-J	.	.
=184	=184	=184	=184	=184	=184	=184	=184	=184
(2bb-	.	8FL 8A-	.	8B-L	.	8A-L 8e-	.	V43
.	.	8F 8A-	.	8B-	.	8A- 8d	.	.
.	.	8F 8A-	.	8B-	.	8A- 8d	.	.
.	.	8F 8A-	.	8B-	.	8A- 8d	.	.
8aa-L	.	8F 8A-	.	8B-	.	8A- 8d	.	.
8ggJ)	.	8FJ 8A-	.	8B-J	.	8A-J 8d	.	.
=185	=185	=185	=185	=185	=185	=185	=185	=185
(8ggL	.	8DL	.	8B-L	.	8A-L 8f	.	V65
8ffJ)	.	8D	.	8B-	.	8A- 8f	.	.
(8ee-'L	.	8D	.	8B-	.	8A- 8f	.	.
8dd'	.	8D	.	8B-	.	8A- 8f	.	.
8cc'	.	8D	.	8B-	.	8A- 8f	.	.
8b-'J)	.	8DJ	.	8B-J	.	8A-J 8f	.	.
=186	=186	=186	=186	=186	=186	=186	=186	=186
8A-L	.	8E-L	.	8B-L	.	8G'L 8g	.	I
8G	.	8E- 8G	.	8B- 8e-	.	8b-'	.	.
8F	.	8E- 8G	.	8B- 8e-	.	8cc'	.	.
8E-	.	8E- 8G	.	8B- 8e-	.	8dd'J	.	.
8D-X	.	8E- 8G	.	8B- 8e-	.	[4ee-	f	.
8CJ	.	8E-J 8G	.	8B-J 8e-	.	.	.	.
=187	=187	=187	=187	=187	=187	=187	=187	=187
8BB-L	.	8E-L 8G	.	8B-L 8e-	.	2ee-]	.	I64
8AA-	.	8E- 8G	.	8B- 8e-	.	.	.	.
8GG	.	8E- 8G	.	8B- 8e-	.	.	.	.
8FF	.	8E- 8G	.	8B- 8e-	.	.	.	.
8EE-	.	8E- 8G	.	8B- 8e-	.	(8ff'L	.	.
8DD-XJ	.	8E-J 8G	.	8B-J 8e-	.	8gg'J)	.	IV.V2
=188	=188	=188	=188	=188	=188	=188	=188	=188
8CCL	.	8E-L 8A-	.	8cL 8e-	.	(2bb-	.	I6(9)
8C	.	8E- 8A-	.	8c 8e-	.	.	.	.
8C	.	8E- 8A-	.	8c 8e-	.	.	.	.
8cJ	.	8E-J 8A-	.	8c 8e-	.	.	.	.
8cL	.	[4a-	f	8c 8e-	.	[4aa-)	.	I6
8cJ	.	.	.	8cJ 8e-	.	.	.	.
=189	=189	=189	=189	=189	=189	=189	=189	=189
8cL	.	2a-]	.	8cL 8e-	.	4.aa-]	.	.
8c	.	.	.	8c 8e-	.	.	.	.
8c	.	.	.	8c 8e-	.	.	.	.
8c	.	.	.	8c 8e-	.	8cL	.	.
8c	.	8b-'L	.	8c 8e-	.	8B-	.	.
8cJ	.	8cc'J	.	8cJ 8e-	.	8A-J	.	.
=190	=190	=190	=190	=190	=190	=190	=190	=190
8B-L	.	2ee-	.	8d-XL 8e-	.	8GL 8e-	.	V65
8B-	.	.	.	8d- 8e-	.	8G 8e-	.	.
8B-	.	.	.	8d- 8e-	.	8G 8e-	.	.
8B-J	.	.	.	8d-J 8e-	.	8GJ 8e-	.	.
(8B-L	.	(8dd-XL	.	[4ee-	.	8GL 8e-	.	.
8A-J)	.	8ccJ)	.	.	.	8A-J 8e-	.	I
=191	=191	=191	=191	=191	=191	=191	=191	=191
(8A-L	.	(8ccL	.	2ee-]	.	8B-L 8e-	.	V6
8G)	.	8b-)	.	.	.	8B- 8e-	.	.
8F'	.	8a-'	.	.	.	8B- 8e-	.	.
8E-'	.	8g'	.	.	.	8B- 8e-	.	.
8D-X'	.	8f'	.	(8ff'L	.	8B- 8e-	.	V43
8BB-'J	.	8d-X'J	.	8gg'J)	.	8B-J 8e-	.	.
=192	=192	=192	=192	=192	=192	=192	=192	=192
8AA-L	.	8cL	.	(2bb-	.	8cL 8e-	.	I(9)
8GG-XJ	.	8E-J 8c	.	.	.	8c 8e-	.	V2/IV
8GG-L	.	8E-L 8c	.	.	.	8c 8e-	.	.
8GG-	.	8E- 8c	.	.	.	8cJ 8e-	.	.
8GG-	.	8E- 8c	.	4aa-)	.	[4a-	.	.
8GG-J	.	8E-J 8c	.	.	.	.	.	.
=193	=193	=193	=193	=193	=193	=193	=193	=193
8GG-XL	.	8E-L 8c	.	2.gg-X	.	2a-]	.	V43/IV
8EE-J 8AA-	.	8G-XJ	.	.	.	.	.	.
8EE-L 8AA-	.	8G-L	.	.	.	.	.	.
8EE- 8AA-	.	8G-	.	.	.	.	.	.
8EE- 8AA-	.	8G-	.	.	.	(8b-'L	.	.
8EE-J 8AA-	.	8CJ 8A-	.	.	.	8cc'J)	.	.
=194	=194	=194	=194	=194	=194	=194	=194	=194
8DD-XL 8AA-	sf sf	8D-XL 8A-	.	[2.ff	sf	(8ee-L	sf	IV
8DD-J 8AA-	.	8D-J 8A-	.	.	.	8dd-X)	.	.
8DD-L 8AAn	.	8D-L 8An	.	.	.	8cc'	.	.
8DD- 8BB-	.	8D- 8B-	.	.	.	8b-'J	.	ii6
8DD- 8BB-	.	8D- 8B-	.	.	.	8een'L	.	.
8DD-J 8BB-	.	8D-J 8B-	.	.	.	8ff'J	.	.
=195	=195	=195	=195	=195	=195	=195	=195	=195
8EE-L 8BB-	sf sf	8E-L 8B-	.	4ff]	.	(8ffL	sf	V(9)
8EE-J 8BB-	.	8E-J 8B-	.	.	.	8ee-X)	.	.
8EE-L 8BB-	.	8E-L 8B-	.	[2ggn	sf	8dd-X'	.	V7
8EE- 8C	.	8E- 8c	.	.	.	8cc'	.	.
8EE- 8D-X	.	8E- 8d-X	.	.	.	8b-'	.	.
8EE-J 8GGn	.	8E-J 8Gn	.	.	.	8ee-'J	.	.
=196	=196	=196	=196	=196	=196	=196	=196	=196
8EEnL	sf sf	8CL 8G	.	4gg]	.	(8dd-XL	sf	#viio7/vi
8EE	.	8C 8c	.	.	.	8cc)	.	.
8FF	.	8C 8c	.	[2aa-	sf	8b-'	.	vi
8FFJ	.	8CJ 8c	.	.	.	8a-'J	.	.
8DDnL	.	8FL 8B-	.	.	.	8een'L	.	V65/V
8DDJ	.	8FJ 8B-	.	.	.	8ff'J	.	.
=197	=197	=197	=197	=197	=197	=197	=197	=197
8DDL	sf sf	8DnL 8B-	.	4aa-]	.	(8ffL	sf	.
8EE-XJ	.	8E-J 8c	.	.	.	8ee-X)	.	V(64)
8EE-L	.	8E-L 8G	.	8bb-'L	.	8dd-X'	.	V7
8EE-	.	8E- 8A-	.	8ccc'	.	8cc'J	.	.
8EE-	.	8E- 8B-	.	8ddd-X'	.	8b-'L	.	.
8E-J	.	8e-J	.	8G'J	.	8ee-'J	.	.
=198	=198	=198	=198	=198	=198	=198	=198	=198
4AA-	.	4A-	.	4A-	.	4A-	.	I\\
4r	.	4r	.	4r	.	4r	.	.
4r	.	8cc'L	p	4r	.	8ccc'L	p	.
.	.	8dd-X'J	.	.	.	8ddd-X'J	.	.
=199	=199	=199	=199	=199	=199	=199	=199	=199
2.r	.	(8dd-XL	.	2.r	.	(8ddd-XL	.	ii.iio
.	.	8cc)	.	.	.	8ccc)	.	.
.	.	8b-'	.	.	.	8bb-'	.	.
.	.	8a-'	.	.	.	8aa-'	.	.
.	.	8g'	.	.	.	8gg'	.	V64
.	.	8cc'J	.	.	.	8ccc'J	.	.
=200	=200	=200	=200	=200	=200	=200	=200	=200
2.r	.	4f'	.	4r	.	4ff'	.	i
.	.	4b-'	.	4r	.	4bb-'	.	#viio
.	.	4en'	.	4g'	p	4een'	.	.
=201	=201	=201	=201	=201	=201	=201	=201	=201
(2C	p	4a-'	.	4f'	.	4aa-'	.	i64
.	.	(8fL	.	(8a-L	.	4ddn'	.	V7(2)/bVII
.	.	8g)	.	8b-)	.	.	.	.
8BB-L	.	(8g	.	(8b-	.	(8ggL	.	ii6
8AA-J)	.	8a-J)	.	8ccJ)	.	8ffJ)	.	i6
=202	=202	=202	=202	=202	=202	=202	=202	=202
4GG'	.	4b-'	.	4cc'	.	4een'	.	V43
4FF'	.	4a-'	.	4cc'	.	4ff'	.	i\\
8Bn'L	.	4r	.	8bn'L	.	4r	.	.
8c'J	.	.	.	8cc'J	.	.	.	.
=203	=203	=203	=203	=203	=203	=203	=203	=203
(8cL	.	2.r	.	(8ccL	.	2.r	.	V64
8B-XJ)	.	.	.	8b-XJ)	.	.	.	.
8A-'L	.	.	.	8a-'L	.	.	.	.
8G'	.	.	.	8g'	.	.	.	.
8F'	.	.	.	8f'	.	.	.	.
8B-'J	.	.	.	8b-'J	.	.	.	.
=204	=204	=204	=204	=204	=204	=204	=204	=204
4E-'	.	2.r	.	4e-'	.	8ccL	p	I
.	.	.	.	.	.	8b-	.	.
4A-'	.	.	.	4a-'	.	8a-'	.	IV
.	.	.	.	.	.	8g'	.	.
4D'	.	.	.	4d'	.	8f'	.	V6
.	.	.	.	.	.	8b-'J	.	.
=205	=205	=205	=205	=205	=205	=205	=205	=205
4G'	.	(4.E-	.	4g'	.	(2bb-	.	vi7
4C'	.	.	.	4c'	.	.	.	.
.	.	8CL	.	.	.	.	.	.
(8FL	.	8D	.	(8fL	.	8aa-L	.	viio6
8E-J)	.	8E-J)	.	8e-J)	.	8ggJ)	.	I
=206	=206	=206	=206	=206	=206	=206	=206	=206
8E-	.	8F	.	8A- 8d	.	(8ggL	.	I[viio6
!LO:TX:b:i:t=cresc.	!	!LO:TX:b:i:t=cresc.	!	!LO:TX:b:i:t=cresc.	!	!	!	!
4E-	.	4F	.	4dd	.	8ffJ	.	.
!	!	!	!	!	!	!LO:TX:b:i:t=cresc.	!	!
.	.	.	.	.	.	8a-L	.	.
4E-	.	(8GL	.	4ee-	.	8g	.	.
.	.	8F	.	.	.	8a-	.	.
8E-	.	8c-XJ)	.	8ff	.	8dJ)	.	viio2
=207	=207	=207	=207	=207	=207	=207	=207	=207
!	!	!	!	!	!LO:DY:a	!	!	!
[2.EE-	p p <	(2.B-	<	(2.gg	p p <	(8GL	.	I64
.	.	.	.	.	.	8e-J	.	.
.	.	.	.	.	.	8dL	<	.
.	.	.	.	.	.	8e-	.	.
.	.	.	.	.	.	8f	.	.
.	.	.	.	.	.	8gJ)	.	.
=208	=208	=208	=208	=208	=208	=208	=208	=208
2.EE-_	.	2A-	.	2ff	.	(8c-XL	.	viio43
.	.	.	.	.	.	8a-	.	.
.	.	.	.	.	.	8g	.	.
.	.	.	.	.	.	8a-J	.	.
.	.	8GL	.	8ee-L	.	8b-L	.	.
.	.	8FJ)	.	8ddJ)	.	8cc-XJ)	.	.
=209	=209	=209	=209	=209	=209	=209	=209	=209
2.EE-_	>]	(2A-	>	(4ff	.	(8dL	.	.
.	.	.	.	.	.	8ffJ	.	.
.	.	.	.	4cc-X	>	8eenL	[ >	.
.	.	.	.	.	.	8ffJ	.	.
.	.	8GL	.	8b-L	.	8ggL	.	.
.	.	8FJ)	]]	8a-J)	]]	8aa-J)	.	.
=210	=210	=210	=210	=210	=210	=210	=210	=210
(2EE-]	.	(4F	.	(4a-	.	(8aanL	.	V43
.	.	.	.	.	.	8bb-J)	.	.
.	.	[2E-)	]]	4g	.	(8bb-L	.	I]
.	.	.	.	.	.	8cccJ)	.	.
4FF)	]]	.	.	4a-	]]	(8cccL	.	IV64
.	.	.	.	.	.	8bb-J)	]]	.
=211	=211	=211	=211	=211	=211	=211	=211	=211
!LO:TX:b:i:t=dim.	!	!	!	!	!	!	!	!
!LO:TX:a:i:t=dim.	!	!LO:TX:a:i:t=dim.	!	!	!	!LO:TX:b:i:t=dim.	!	!
2.GG	.	2.E-_	.	4b-)	.	(4bb-	.	I6
.	.	.	.	(4B-	.	4eee-	.	.
.	.	.	.	4Bn	.	4ddd)	.	I+6
=212	=212	=212	=212	=212	=212	=212	=212	=212
[2.AA-	.	(2E-]	.	[2.c)	.	(4ddd	.	IV(11)
.	.	.	.	.	.	4bbn	.	.
.	.	4En	.	.	.	8dddL	.	IV+
.	.	.	.	.	.	8cccJ)	.	.
=213	=213	=213	=213	=213	=213	=213	=213	=213
!	!	!LO:TX:a:i:t=cresc.	!	!	!	!	!	!
!LO:TX:b:i:t=cresc.	!	!LO:TX:b:i:t=cresc.	!	!	!	!LO:TX:b:i:t=cresc.	!	!
2AA-]	.	8FL	.	(8cL]	.	(8cccL	.	IV[ii
.	.	8En	.	8g	.	8gg	.	viio
.	.	8G	.	8b-	.	8bb-X	.	.
.	.	8FJ	.	8a-J	.	8aa-X	.	ii]
[4AAn	.	[4G-X)	.	8ccL	.	8ccc	.	#viio7/V
.	.	.	.	[8cJ)	.	8ccJ)	.	.
=214	=214	=214	=214	=214	=214	=214	=214	=214
8AA]	p	8G-]	p p	8c]	.	(8ee-L	p	.
4AA-X	.	4F	.	4c-X	.	8dd	.	viio64
.	.	.	.	.	.	8dddJ)	.	.
4GG	.	4Gn	.	4B-	.	4eee-	.	I6
8FF	.	8A-	.	8d	.	8fff	.	viio6
=215	=215	=215	=215	=215	=215	=215	=215	=215
.	.	.	.	.	.	16qqgg/	<	.
8EE-L	<	[2.E-	<	(8e-L	<	(2.ggg	.	I[I
(8E-J	.	.	.	8gJ	.	.	.	.
8DL	.	.	.	8fL	.	.	.	.
8E-	.	.	.	8g	.	.	.	.
8F	.	.	.	8a-	.	.	.	.
8GJ)	.	.	.	8b-J)	.	.	.	.
=216	=216	=216	=216	=216	=216	=216	=216	=216
8A-	.	2.E-_	[[	(8cc-XL	.	2fff	.	viio43
(8A-L	.	.	.	8fJ	.	.	.	.
8G	.	.	.	8enL	.	.	.	.
8A-	.	.	.	8f	.	.	.	.
8B-	.	.	.	8g	.	8eee-L	.	.
8c-XJ)	[[	.	.	8a-J)	[[	8dddJ)	[[	.
=217	=217	=217	=217	=217	=217	=217	=217	=217
8DL	>	2.E-_	>]	(8a-L	>	(4fff	>	viio7
8fJ	.	.	.	8dJ)	.	.	.	.
8fL	.	.	.	(8dL	.	4ccc-X	.	.
8fJ	.	.	.	8dd	.	.	.	.
(8ggL	.	.	.	8ee-	.	8bb-L	.	I
8aa-J)	]]	.	.	8ffJ)	]]	8aa-J)	]]	viio
=218	=218	=218	=218	=218	=218	=218	=218	=218
(4aa-	.	4E-]	.	(4ff	.	(4aa-	.	.
4gg	.	(4E-	.	[2ee-)	.	4gg	.	I]
4aa-	.	4F	.	.	.	4aa-)	.	ii7
=219	=219	=219	=219	=219	=219	=219	=219	=219
!LO:TX:b:i:t=dim.	!	!	!	!LO:TX:b:i:t=dim.	!	!LO:TX:b:i:t=dim.	!	!
4bb-	.	2.G	.	(4ee-]	.	(8aanL	.	I6
.	.	.	.	.	.	8bb-	.	.
4eee-	.	.	.	[2e-)	.	8ccc	.	.
.	.	.	.	.	.	8bb-J)	.	.
[4ddd)	.	.	.	.	.	8bbnL	.	I+6
.	.	.	.	.	.	8bbJ	.	.
=220	=220	=220	=220	=220	=220	=220	=220	=220
(4ddd]	.	2.A-)	.	2e-]	.	(8bbnL	.	IV(9)
.	.	.	.	.	.	8dddJ)	.	.
4bbn	.	.	.	.	.	(8dddL	.	.
.	.	.	.	.	.	8bbJ	.	.
8dddL	.	.	.	[4en	.	8dddL	.	IV+
8cccJ)	.	.	.	.	.	8cccJ)	.	.
=221	=221	=221	=221	=221	=221	=221	=221	=221
!LO:TX:b:i:t=cresc.	!	!LO:TX:b:i:t=cresc.	!	!LO:TX:b:i:t=cresc.	!	!LO:TX:b:i:t=cresc.	!	!
(8cccL	.	2A-	.	8eL]	.	(8cccL	.	.
8ggJ	.	.	.	(8enJ	.	8ggJ	.	.
8bb-XL	.	.	.	8gL	.	8bb-XL	.	.
8aa-J)	.	.	.	8fJ)	.	8aa-J)	.	ii6
*clefF4	*	*	*	*	*	*	*	*
8D'L	.	8F'L	.	8f'L	.	8aa-'L	.	viio
8C'J	.	8E-'J	.	8ff'J	.	8aa-'J	.	.
=222	=222	=222	=222	=222	=222	=222	=222	=222
8BBn'L	f f	8D'L	.	8ff'L	f	8aa-'L	f	viio7/vi
8C'J	.	8E-'J	.	8ee-X'J	.	8gg'J	.	vi
8C'L	.	8E-'L	.	8ee-'L	.	8gg'L	.	.
8AA-'J	.	8F'J	.	8cc'J	.	8aa-'J	.	ii6
8BB-X'L	.	8B-'L	.	8ee-'L	.	8gg'L	.	V(64)
8AA-'J	.	8b-'J	.	8dd'J	.	8ff'J	.	V2
=223	=223	=223	=223	=223	=223	=223	=223	=223
(4GG	p <	4b-	p <	[2.ee-	p <	4bb-	p <	I6
4C	.	4r	.	.	.	4r	.	.
4AA-	.	(8ccL	.	.	.	(8cccL	.	V2(4)
.	.	8b-J)	.	.	.	8bb-J)	.	.
=224	=224	=224	=224	=224	=224	=224	=224	=224
4FF	.	4b-	.	4ee-]	.	4bb-	.	V64(2)
4BB-	[ >	4r	[ >	4dd	[ >	4r	[ >	V
4GG)	]]	(8ccL	.	4ee-	]]	(8cccL	.	I6
.	.	8b-J)	]]	.	.	8bb-J)	]]	.
=225	=225	=225	=225	=225	=225	=225	=225	=225
[2.e-	<	4b-	.	4g 4ee-	.	4bb-	.	I
.	.	4r	.	4r	.	(4cc	<	.
.	.	(8ccL	<	(8cL	<	4a-	.	V65(4)
.	.	8b-J)	.	8B-J)	.	.	.	.
=226	=226	=226	=226	=226	=226	=226	=226	=226
(4e-]	.	4b-	.	4B-	.	4f	.	V6(4)
4d	[ >	4r	[ >	4r	[ >	4b-	>	V6
4e-)	]]	(8ccL	.	(8cL	.	4g)	] ]]	I64
.	.	8b-J)	]]	8B-J)	]]	.	.	.
=227	=227	=227	=227	=227	=227	=227	=227	=227
!LO:TX:b:i:t=cresc.	!	!LO:TX:b:i:t=cresc.	!	!LO:TX:b:i:t=cresc.	!	!LO:TX:b:i:t=cresc.	!	!
4BB-	.	[2.ee-	.	[2.e-	.	(4gg	.	.
4r	.	.	.	.	.	4ccc	.	.
(8CL	.	.	.	.	.	4aa-	.	V7(4)
8BB-J)	.	.	.	.	.	.	.	.
=228	=228	=228	=228	=228	=228	=228	=228	=228
4BB-	.	(4ee-]	.	(4e-]	.	4ff	.	V(4)
4r	.	4dd	.	4d	.	4bb-	.	V
(8CL	.	4ee-)	.	4e-)	.	4gg)	.	I64
8BB-J)	.	.	.	.	.	.	.	.
=229	=229	=229	=229	=229	=229	=229	=229	=229
8GG'L	f	8B-'L	f f	8e-'L	.	4ee-'	f	I6
8GG'J	.	8B-'J	.	8b-'J	.	.	.	.
8C'L	.	8e-'L	.	8a-'L	.	[2eee-	.	.
8BB-'	.	8d'	.	8g'	.	.	.	.
8AA-'	.	8c'	.	8f'	.	.	.	.
8GG'J	.	8B-'J	.	8e-'J	.	.	.	.
=230	=230	=230	=230	=230	=230	=230	=230	=230
8FF'L	.	8A-'L	.	8a-'L	.	4eee-]	.	V43(4)
8FF'J	.	8A-'J	.	8a-'J	.	.	.	.
8BB-'L	.	8F' 8A-	.	8g'	.	2dddt	.	V43
8AA-'	.	8f'L	.	8dd'L	.	.	.	.
8GG'	.	8g'	.	8ee-'	.	.	.	.
8FF'J	.	8a-'J	.	8ff'J	.	.	.	.
=231	=231	=231	=231	=231	=231	=231	=231	=231
4EE-'	.	4B-' 4g	.	4gg'	.	4eee-'	.	I
4EE-'	.	4E-'	.	4G' 4e-	.	4G' 4e-	.	.
4EE-'	.	4E-'	.	4G' 4e-	.	4G' 4e-	.	.
=232	=232	=232	=232	=232	=232	=232	=232	=232
4EE-'	.	4E-'	.	4G' 4e-	.	4G' 4e-	.	I\\
!	!	!LO:TX:a:t=ten.	!	!	!	!	!	!
4r	.	4B-	p	4r	.	4r	.	.
4r	.	4B-	.	4r	.	4r	.	.
=233	=233	=233	=233	=233	=233	=233	=233	=233
4r	.	[2.B-	.	4r	.	2.r	.	I64
!LO:TX:b:t=ten.	!	!	!	!LO:TX:a:t=ten.	!	!	!	!
4g	p	.	.	4ee-	p	.	.	.
4g	.	.	.	4ee-	.	.	.	.
=234	=234	=234	=234	=234	=234	=234	=234	=234
4a-	.	4B-]	.	4ff	.	4r	.	V7
!	!	!	!	!	!	!LO:TX:a:t=ten.	!	!
4C-X	.	4F 4A-	.	4f 4dd	.	4ddd	p	viio2
4BB-	.	4F 4A-	.	4f 4dd	.	4dddt	.	V7
=235	=235	=235	=235	=235	=235	=235	=235	=235
4EE-'	f f	4E-' 4G	f	4g' 4ee-	.	4eee-'	f	I
4EE-'	.	4E-' 4G	.	4G' 4e-	.	4G' 4e-	.	.
4EE-'	.	4E-' 4G	.	4G' 4e-	.	4G' 4e-	.	.
=236	=236	=236	=236	=236	=236	=236	=236	=236
4EE-'	.	4E-' 4G	.	4G' 4e-	.	4G' 4e-	.	I\\
!LO:TX:a:t=ten.	!	!	!	!	!	!	!	!
4B-	p	4r	.	4r	.	4r	.	.
4B-	.	4r	.	4r	.	4r	.	.
=237	=237	=237	=237	=237	=237	=237	=237	=237
[2.B-	.	4r	.	4r	.	2.r	.	I64
!	!	!LO:TX:a:t=ten.	!	!LO:TX:a:t=ten.	!	!	!	!
.	.	4g	p	4ee-	p	.	.	.
.	.	4g	.	4ee-	.	.	.	.
=238	=238	=238	=238	=238	=238	=238	=238	=238
4B-]	.	4a-	.	4ff	.	4r	.	V7
!	!	!	!	!	!	!LO:TX:a:t=ten.	!	!
4C-X	.	4F	.	4a-	.	4ddd	p	viio2
4BB-	.	4F	.	4a-	.	4dddt	.	V7
=239	=239	=239	=239	=239	=239	=239	=239	=239
2.r	.	2.r	.	2.r	.	2.r	.	.
=240	=240	=240	=240	=240	=240	=240	=240	=240
4r	.	4r	.	4r	.	4r	.	.
4B-	.	4f	.	4a-	.	4dd	.	V7
4B-	.	4f-X	.	4g	.	4dd-XT	.	viio65/IV
=241	=241	=241	=241	=241	=241	=241	=241	=241
(2.c	.	[2.e-	.	4r	.	(4ee-	.	IV6
.	.	.	.	(4c	.	4aa-	.	.
.	.	.	.	[4a-)	.	4ff)	.	ii43
=242	=242	=242	=242	=242	=242	=242	=242	=242
2.B-	.	2.e-_	.	(2a-]	.	(8ee-L	.	V43(4)/IV
.	.	.	.	.	.	8dd-XJ)	.	.
.	.	.	.	.	.	(8dd-L	.	.
.	.	.	.	.	.	8ccJ	.	.
.	.	.	.	4g)	.	4dd-')	.	V43/IV
=243	=243	=243	=243	=243	=243	=243	=243	=243
2.A-	.	(4e-]	.	(4e-	.	(2.cc	.	ii6
.	.	[2c)	.	4a-	.	.	.	.
.	.	.	.	4f)	.	.	.	.
=244	=244	=244	=244	=244	=244	=244	=244	=244
2.G)	.	2.c]	.	(8fL	.	2.b-	.	V43/ii
.	.	.	.	8enJ)	.	.	.	.
.	.	.	.	(8eL	.	.	.	.
.	.	.	.	8dJ	.	.	.	.
.	.	.	.	4e')	.	.	.	.
=245	=245	=245	=245	=245	=245	=245	=245	=245
(2.F	.	(4c	.	([2.f	.	2.a-	.	viio6
.	.	4f	.	.	.	.	.	.
.	.	4d)	.	.	.	.	.	.
=246	=246	=246	=246	=246	=246	=246	=246	=246
2.G	.	(8cL	.	4f]	.	2.g	.	I6
.	.	8B-J)	.	.	.	.	.	.
.	.	(8B-L	.	2e-X	.	.	.	.
.	.	8AnJ	.	.	.	.	.	.
.	.	4B-')	.	.	.	.	.	.
=247	=247	=247	=247	=247	=247	=247	=247	=247
2.A-	.	(8cL	.	2.d	.	2.f	.	V2
.	.	8B-J)	.	.	.	.	.	.
.	.	(8B-L	.	.	.	.	.	.
.	.	8AnJ	.	.	.	.	.	.
.	.	4B-')	.	.	.	.	.	.
=248	=248	=248	=248	=248	=248	=248	=248	=248
2.G)	.	(8ccL	.	2.e-)	.	2.g)	.	I6
.	.	8b-)	.	.	.	.	.	.
.	.	(8b-	.	.	.	.	.	.
.	.	8anJ	.	.	.	.	.	.
.	.	8b-L	.	.	.	.	.	.
.	.	[8B-J)	.	.	.	.	.	.
=249	=249	=249	=249	=249	=249	=249	=249	=249
(2.F	.	(2B-]	.	(2.a-	.	(4cc	.	V43(9)
.	.	.	.	.	.	4ff	.	.
.	.	[4f	.	.	.	4dd)	.	viio6
=250	=250	=250	=250	=250	=250	=250	=250	=250
2.G	.	2f]	.	2.g	.	(8ccL	.	I6(2)
.	.	.	.	.	.	8b-J)	.	.
.	.	.	.	.	.	(8b-L	.	.
.	.	.	.	.	.	8anJ	.	.
.	.	[4e-)	.	.	.	4b-')	.	I6
=251	=251	=251	=251	=251	=251	=251	=251	=251
2.A-	.	(2e-]	.	2.f	.	(8ccL	.	V2(4)
.	.	.	.	.	.	8b-J)	.	.
.	.	.	.	.	.	(8b-L	.	.
.	.	.	.	.	.	8anJ	.	.
.	.	[4d	.	.	.	4b-')	.	V2
=252	=252	=252	=252	=252	=252	=252	=252	=252
2.G)	.	4d]	.	2.g)	.	(8ccL	.	iii
.	.	.	.	.	.	8b-J)	.	.
.	.	4e-	.	.	.	(8b-L	.	I6
.	.	.	.	.	.	8anJ	.	.
.	.	[4ee-)	.	.	.	4b-')	.	.
=253	=253	=253	=253	=253	=253	=253	=253	=253
!LO:TX:b:i:t=cresc.	!	!LO:TX:b:i:t=cresc.	!	!LO:TX:b:i:t=cresc.	!	!LO:TX:b:i:t=cresc.	!	!
(2.F	.	(4ee-]	.	(4cc	.	(2.aa-	.	viio6
.	.	4dd	.	4ff	.	.	.	.
.	.	[4ff	.	8ddL	.	.	.	.
.	.	.	.	8ccJ)	.	.	.	.
=254	=254	=254	=254	=254	=254	=254	=254	=254
2.G	.	2ff]	.	(8ccL	.	2.gg	.	I6
.	.	.	.	8b-J)	.	.	.	.
.	.	.	.	(8b-L	.	.	.	.
.	.	.	.	8anJ	.	.	.	.
.	.	[4ee-	.	4b-')	.	.	.	.
=255	=255	=255	=255	=255	=255	=255	=255	=255
2.A-	.	2ee-]	.	(8ccL	.	2.ff	.	V2
.	.	.	.	8b-J)	.	.	.	.
.	.	.	.	(8b-L	.	.	.	.
.	.	.	.	8anJ	.	.	.	.
.	.	[4dd	.	4b-')	.	.	.	.
=256	=256	=256	=256	=256	=256	=256	=256	=256
[2.G)	.	4dd]	.	(8cccL	.	2.gg	.	I6
.	.	.	.	8bb-J)	.	.	.	.
.	.	4ee-	.	(8bb-L	.	.	.	.
.	.	.	.	8aanJ	.	.	.	.
.	.	4e-)	.	8bb-L	.	.	.	.
.	.	.	.	8b-J)	.	.	.	.
=257	=257	=257	=257	=257	=257	=257	=257	=257
(2G]	.	(8e-L	.	(8ccL	.	2.aa-	.	V43
.	.	8dJ)	.	8b-J)	.	.	.	.
.	.	(8dL	.	(8b-L	.	.	.	.
.	.	8cJ	.	8anJ	.	.	.	.
[4F	.	4d')	.	4b-')	.	.	.	.
=258	=258	=258	=258	=258	=258	=258	=258	=258
2F]	.	(8A-L	.	(8b-L 8ff	.	2.bb-)	.	I
.	.	8GJ)	.	8ee-J)	.	.	.	.
.	.	(8GL	.	(8ee-L	.	.	.	.
.	.	8FJ	.	8ddJ	.	.	.	.
[4E-)	.	4G')	.	4ee-')	.	.	.	.
=259	=259	=259	=259	=259	=259	=259	=259	=259
2E-]	p <	(8FL	p <	(8ddL	p <	[2.ccc	p <	V6/V
.	.	8E-J)	.	8ccJ)	.	.	.	.
.	.	(8E-L	.	(8ccL	.	.	.	.
.	.	8D	.	8bnJ	.	.	.	.
[4AAn	.	8C	.	4f') 4cc	.	.	.	.
.	.	8DJ)	.	.	.	.	.	.
=260	=260	=260	=260	=260	=260	=260	=260	=260
2AA]	.	(8FL	.	(8ddL	.	(4ccc]	.	.
.	.	8E-J)	.	8ccJ)	.	.	.	.
.	.	(8E-L	.	(8ccL	.	4ddd	.	.
.	.	8D	.	8bnJ	.	.	.	.
[4AAn	.	8C	.	[4f) [4cc	.	4eee-)	.	.
.	.	8DJ	.	.	.	.	.	.
=261	=261	=261	=261	=261	=261	=261	=261	=261
(4AA]	.	8E-L	.	(4f] 4cc]	.	(4eee-	.	V65/V
.	.	8FJ	.	.	.	.	.	.
4BB-)	[ >	4G)	[ >	4g 4b-X	[ >	4bb-	[ >	V(64)
[4f	.	(8B-L	.	[4a-X)	.	[4aa-)	.	V7
.	.	8BnJ	.	.	.	.	.	.
=262	=262	=262	=262	=262	=262	=262	=262	=262
4f]	.	4c	.	(4a-]	.	(4aa-]	.	ii64
8e-L	.	4d-X	.	4g	.	4gg	.	V2/IV
8en	.	.	.	.	.	.	.	.
8f	.	8cL	.	8a-L	.	8aa-L	.	ii64
8gJ	]]	8B-XJ)	]]	8b-J)	]]	8bb-J)	]]	I64
=263	=263	=263	=263	=263	=263	=263	=263	=263
!LO:TX:b:i:t=cresc.	!	!LO:TX:b:i:t=cresc.	!	!LO:TX:b:i:t=cresc.	!	!LO:TX:b:i:t=cresc.	!	!
4a-	.	(8FL	.	(8ddL	.	(2.ccc	.	ivo
.	.	8E-J)	.	8ccJ)	.	.	.	.
4AA-	.	(8E-L	.	(8ccL	.	.	.	.
.	.	8D	.	8bnJ	.	.	.	.
[4AAn	.	8C	.	4cc')	.	.	.	.
.	.	8DJ)	.	.	.	.	.	.
=264	=264	=264	=264	=264	=264	=264	=264	=264
2AA]	.	(8FL	.	(8ddL	.	(4ccc)	.	.
.	.	8E-J)	.	8ccJ)	.	.	.	.
.	.	(8E-L	.	(8ccL	.	4ddd	.	.
.	.	8D	.	8bnJ	.	.	.	.
(4AA-X	.	8C	.	8fL 8cc	.	[4eee-)	.	ii65
.	.	8DJ)	.	8fJ)	.	.	.	.
=265	=265	=265	=265	=265	=265	=265	=265	=265
4BB-	.	(2.E-	.	(4g	.	(4eee-]	.	I64
4AA-X	.	.	.	4a-X	.	4fff	.	V2
4GG	.	.	.	[4b-X	.	[4ggg)	.	I6
=266	=266	=266	=266	=266	=266	=266	=266	=266
4FF	.	4D-X	.	4b-]	.	(4ggg]	.	V7(2)/IV
4EE-	.	4C	.	4cc	.	4aaa-)	.	IV64
8DD-XL	.	8FL	.	8dd-XL	.	4aaa-	.	V2/IV
8CCJ)	.	8E-J)	.	8ee-J)	.	.	.	.
=267	=267	=267	=267	=267	=267	=267	=267	=267
!	!	!LO:TX:b:t=p dolce	!	!	!	!	!	!
!LO:TX:b:t=p dolce	!	!LO:TX:a:t=p dolce	!	!	!	!LO:TX:b:t=p dolce	!	!
(4CC	.	(4E-	.	(8ee-L	.	(2.aaa-	.	viio
.	.	.	.	8a-J)	.	.	.	.
4FF	.	4A-	.	(8a-L	.	.	.	.
.	.	.	.	8gJ	.	.	.	.
[4DDn	.	4F	.	4a-')	.	.	.	.
=268	=268	=268	=268	=268	=268	=268	=268	=268
!LO:TX:b:i:t=dim.	!	!LO:TX:b:i:t=dim.	!	!LO:TX:b:i:t=dim.	!	!LO:TX:b:i:t=dim.	!	!
4DD]	.	4F	.	(8ccL	.	2.ggg	.	I
.	.	.	.	8b-J)	.	.	.	.
4GG	.	4B-	.	(8b-L	.	.	.	.
.	.	.	.	8anJ	.	.	.	.
[4EE-)	.	[4G)	.	4b-')	.	.	.	.
=269	=269	=269	=269	=269	=269	=269	=269	=269
(4EE-]	.	(4G]	.	(8ee-L	.	[2.fff)	.	viio6
.	.	.	.	8ddnJ)	.	.	.	.
4AA-	.	4c	.	(8ddL	.	.	.	.
.	.	.	.	8ccJ	.	.	.	.
[4FF	.	[4A-	.	4dd')	.	.	.	.
=270	=270	=270	=270	=270	=270	=270	=270	=270
4FF]	.	4A-]	.	(8ffL	.	(4fff]	.	.
.	.	.	.	8ee-J)	.	.	.	.
4BB-	.	4d-X	.	(8ee-L	.	4eee-	.	V43/IV
.	.	.	.	8ddJ	.	.	.	.
4GG)	.	4B-)	.	8ee-L	.	4ddd-X)	.	V65/IV
.	.	.	.	8dd-XJ	.	.	.	.
=271	=271	=271	=271	=271	=271	=271	=271	=271
!LO:TX:b:i:t=cresc.	!	!LO:TX:b:i:t=cresc.	!	!LO:TX:b:i:t=cresc.	!	!LO:TX:b:i:t=cresc.	!	!
2AA-	.	2c	.	4cc	.	(8cccL	.	ii6
.	.	.	.	.	.	8ccJ	.	.
.	.	.	.	4ff	.	8ee-L	.	.
.	.	.	.	.	.	8ff	.	.
[4A-	.	[4B-	.	4ddn	.	8gg	.	V2
.	.	.	.	.	.	8aa-J	.	.
=272	=272	=272	=272	=272	=272	=272	=272	=272
(4A-]	.	4B-]	.	4b-	.	8bb-L	.	.
.	.	.	.	.	.	8ccc	.	.
4G	.	(4B-	.	4ee-	.	8dddn	.	I6
.	.	.	.	.	.	8eee-	.	.
4E-	.	4G	.	4cc)	.	8fff	.	I
.	.	.	.	.	.	8gggJ)	.	.
=273	=273	=273	=273	=273	=273	=273	=273	=273
4BB-	.	4F	.	(4dd	.	(8bbb-L	.	V7
.	.	.	.	.	.	8aaa-J)	.	.
4B-	.	4d	.	8ffL	.	(8aaa-L	.	.
.	.	.	.	8ee-J	.	8gggJ	.	.
8cL	.	8e-L	.	4b-') 4ff	.	4aaa-')	.	V65
8dJ)	.	8fJ)	.	.	.	.	.	.
=274	=274	=274	=274	=274	=274	=274	=274	=274
!	!	!LO:TX:b:i:t=dim.	!	!	!	!	!	!
!	!	!LO:TX:a:i:t=dim.	!	!	!	!LO:TX:b:i:t=dim.	!	!
4e-	.	(8f	.	(4b- 4gg	.	(4ggg	.	I
.	.	4e-	.	.	.	.	.	.
4r	.	.	.	[2ee-)	.	8ggL	.	.
.	.	8f	.	.	.	8aa-	.	.
4r	.	4g	.	.	.	8bb-	.	I+6
.	.	.	.	.	.	8bbnJ)	.	.
=275	=275	=275	=275	=275	=275	=275	=275	=275
2.r	.	2.a-	.	2ee-]	.	(4ccc	.	IV
.	.	.	.	.	.	4fff	.	.
.	.	.	.	[4ff	.	4ddd	.	viio64
=276	=276	=276	=276	=276	=276	=276	=276	=276
2.r	.	2.g	.	2ff]	.	4bb-X	.	I6(2)
.	.	.	.	.	.	4eee-	.	.
.	.	.	.	[4ee-	.	4ccc)	.	vi64
=277	=277	=277	=277	=277	=277	=277	=277	=277
2.r	.	[2.f)	p	(2ee-]	p	(8bb-L	p	viio6(2)
.	.	.	.	.	.	8aa-J)	.	.
.	.	.	.	.	.	(8aa-L	.	.
.	.	.	.	.	.	8ggJ	.	.
.	.	.	.	[4dd)	.	4aa-')	.	viio6
=278	=278	=278	=278	=278	=278	=278	=278	=278
4r	.	(4f]	.	(2dd]	.	4gg	.	I(72)
4r	.	4e-	.	.	.	4r	.	I(7)
4B-	p	4g	.	4e-) [4ee-	.	4r	.	I64
=279	=279	=279	=279	=279	=279	=279	=279	=279
(8B-L	.	[2.f)	.	(2ee-]	.	2.r	.	viio64
8A-J)	.	.	.	.	.	.	.	.
(8A-L	.	.	.	.	.	.	.	.
8GJ	.	.	.	.	.	.	.	.
4A-')	.	.	.	[4dd	.	.	.	.
=280	=280	=280	=280	=280	=280	=280	=280	=280
4G	.	(4f]	.	2dd]	.	4r	.	I6(72)
4r	.	4e-)	.	.	.	4r	.	I6(7)
4BB-	pp	4e-	pp pp	4g) 4ee-	.	[4eee-	pp	I64
=281	=281	=281	=281	=281	=281	=281	=281	=281
(8CL	.	(2.f	.	(2.a-	.	(8eee-L]	.	V7
8BB-J)	.	.	.	.	.	8dddJ)	.	.
(8BB-L	.	.	.	.	.	(8dddL	.	.
8AAnJ	.	.	.	.	.	8cccJ	.	.
4BB-')	.	.	.	.	.	4ddd')	.	.
=282	=282	=282	=282	=282	=282	=282	=282	=282
4EE-	.	4e-)	.	4g)	.	4eee-	.	I\\
4r	.	4r	.	4r	.	4r	.	.
4r;	.	4r;	.	4r;	.	4r;	.	.
==	==	==	==	==	==	==	==	==
*-	*-	*-	*-	*-	*-	*-	*-	*-
!!!system-decoration: [(s1,s2,s3,s4)]
